!!!!SEGMENT: pl-kozmzk--mzk-m-10-ii_troschel-wilhelm--ona-sie-smiala.krn
!!!cenid: 18xx:3054
!!!COM: Troschel, Wilhelm
!!!COM-rism:
!!!CDT:
!!!CNT:
!!!OTL: Ona się śmiała
!!!PDT:
!!!AGN:
!!!SMS-siglum: PL-KOZmzk
!!!SMS-shelfmark: mzk/m/10-ii
!!!NIFC-rismID: 1001083363
!!!URL-scan: https://repozytorium.nifc.pl/islandora/object/pl-kozmzk%3A1089/datastream/PDF/view
!!!ONB-nifc:
!!!SMS-variant:
!!!SMS-altvar:
!!!OMD:Allegro moderato.
**kern	**fing	**kern	**dynam	**fing	**kern	**text	**dynam
*part2	*	*part2	*part2	*	*part1	*part1	*part1
*staff3	*	*staff2	*	*	*staff1	*staff1	*
*	*	*I"Fortepian.	*	*	*I"Śpiew.	*	*
*clefG2	*	*clefG2	*	*	*clefG2	*	*
*k[b-e-a-d-g-]	*	*k[b-e-a-d-g-]	*	*	*k[b-e-a-d-g-]	*	*
*M6/8	*	*M6/8	*	*	*M6/8	*	*
*	*	*8va	*	*	*	*	*
=1	=1	=1	=1	=1	=1	=1	=1
!	!	!LO:TX:i:a:t=Spokojnie	!	!	!	!	!
(<8a-/L	.	(8aaa-\L	p	.	2.r	.	.
16b-/L	.	16bbb-\L	.	.	.	.	.
32a-/L	.	32aaa-\L	.	.	.	.	.
32g-/J	.	32ggg-\J	.	.	.	.	.
16f/	.	16fff\	.	.	.	.	.
16e-/JJ)	.	16eee-\JJ)	.	.	.	.	.
(32d-/LLL	.	(32ddd-\LLL	.	.	.	.	.
32e-/	.	32eee-\	.	.	.	.	.
32f/	.	32fff\	.	.	.	.	.
32e-/JJJ	.	32eee-\JJJ	.	.	.	.	.
16d-/LL	.	16ddd-\LL	.	.	.	.	.
16B-/	.	16bb-\	.	.	.	.	.
16c/	.	16ccc\	.	.	.	.	.
16A-/JJ)	.	16aa-\JJ)	.	.	.	.	.
*	*	*X8va	*	*	*	*	*
*clefF4	*	*	*	*	*	*	*
=2	=2	=2	=2	=2	=2	=2	=2
(8d-\L	.	(8ddd-\L	.	.	2.r	.	.
16c\L	.	16ccc\L	.	.	.	.	.
32A-\L	.	32aa-\L	.	.	.	.	.
32F\J	.	32ff\J	.	.	.	.	.
16G-\	.	16gg-\	.	.	.	.	.
16B-\JJ)	.	16bb-\JJ)	.	.	.	.	.
(32A-\LLL	.	(32aa-\LLL	.	.	.	.	.
32B-\	.	32bb-\	.	.	.	.	.
32A-\	.	32aa-\	.	.	.	.	.
32G-\JJJ	.	32gg-\JJJ	.	.	.	.	.
16F\LL	.	16ff\LL	.	.	.	.	.
16E-\	.	16ee-\	.	.	.	.	.
16F\	.	16ff\	.	.	.	.	.
16D-\JJ)	.	16dd-\JJ)	.	.	.	.	.
!!LO:LB:g=original
=3	=3	=3	=3	=3	=3	=3	=3
*	*	*^	*	*	*	*	*
8AA-\L	.	16ee-/LL	8cc\L	.	.	2.r	.	.
.	.	16aa-/	.	.	.	.	.	.
8D-\	.	16ff/	8dd-\J	.	.	.	.	.
.	.	32gg-/L	.	.	.	.	.	.
.	.	32ff/J	.	.	.	.	.	.
8F\J	.	16ee-/	16ee-\LL	>	.	.	.	.
.	.	16dd-/JJ	16dd-\JJ	.	.	.	.	.
8A-\L	.	16ee-/LL	8cc\L	.	.	.	.	.
.	.	16aa-/	.	.	.	.	.	.
!	!	!	!	!LO:HP:b=2:t=dim	!	!	!	!
8d-\	.	16ff-X/	8dd-\J	]] >	.	.	.	.
.	.	32gg-/L	.	.	.	.	.	.
.	.	32ff-/J	.	.	.	.	.	.
8f-X\J	.	16ee-/	16ee-\LL	.	.	.	.	.
.	.	16dd-/JJ	16dd-\JJ	.	.	.	.	.
=4	=4	=4	=4	=4	=4	=4	=4	=4
16a->\	.	16ee-/ 16cc/	2ryy	.	.	2.r;	.	.
16cc>'\LL	.	16aa-/LL 16ee-'>/	.	.	.	.	.	.
16b->'\	.	16gg-/ 16dd-'>/	.	.	.	.	.	.
16g->'\	.	16ee-/ 16b-'>/	.	.	.	.	.	.
16e->'\	.	16cc/ 16g-'>/	.	.	.	.	.	.
16d->'\JJ	.	16b-/JJ 16g-/ 16e-'>/	.	.	.	.	.	.
!LO:TX:i:b:t=poco rit.	!	!	!	!	!	!	!	!
16c\LL	.	16a-/LL 16g-/ 16e-/	.	<	.	.	.	.
16c-X\	.	16an/ 16g-/ 16e-/	.	.	.	.	.	.
16B-\	.	16b-/ 16g-/ 16e-/	8ryy	[	.	.	.	.
16B--\	.	16bn/ 16g-/ 16e-/	.	.	.	.	.	.
16A-\JJ	.	16cc/JJ 16g-/ 16e-/	16ryy	.	.	.	.	.
16G-\ 16AA-;\	.	32b-X;/LLL	16c\	>	.	.	.	.
.	.	32a;/JJJ	.	]]	.	.	.	.
*	*	*v	*v	*	*	*	*	*
!!LO:LB:g=original
=5	=5	=5	=5	=5	=5	=5	=5
4.D-\ 4.AA-\ 4.DD-\	.	(>16F</LL	p	.	2.r	.	.
.	.	16d-/	.	.	.	.	.
.	.	16A-</	.	.	.	.	.
.	.	16f/	.	.	.	.	.
.	.	16d-/	.	.	.	.	.
.	.	16A-</JJ)	.	.	.	.	.
4.D-\ 4.AA-\ 4.DD-\	.	(>16F</LL	.	.	.	.	.
.	.	16d-/	.	.	.	.	.
.	.	16A-</	.	.	.	.	.
.	.	16f/	.	.	.	.	.
.	.	16d-/	.	.	.	.	.
.	.	16A-</JJ)	.	.	.	.	.
=6	=6	=6	=6	=6	=6	=6	=6
!	!	!	!	!	!	!	!LO:DY:a:rj
4.D-\ 4.AA-\ 4.DD-\	.	(>16F</LL	.	.	8a-/	Cho-	p
.	.	16d-/	.	.	.	.	.
.	.	16A-</	.	.	8f/	-wał	.
.	.	16f/	.	.	.	.	.
.	.	16d-/	.	.	8b-/	się	.
.	.	16A-</JJ)	.	.	.	.	.
4.E-\ 4.AA-\ 4.DD-\	.	(>16G-</LL	.	.	4a-/	chło-	.
.	.	16c/	.	.	.	.	.
.	.	16A-</	.	.	.	.	.
.	.	16e-/	.	.	.	.	.
.	.	16c/	.	.	8e-/	-pak	.
.	.	16A-</JJ)	.	.	.	.	.
!!LO:PB:g=original
=7	=7	=7	=7	=7	=7	=7	=7
4.D-\ 4.AA-\ 4.DD-\	.	(>16F</LL	.	.	8f/	ra-	.
.	.	16d-/	.	.	.	.	.
.	.	16A-</	.	.	8a-/	-zem	.
.	.	16f/	.	.	.	.	.
.	.	16d-/	.	.	8dd-\	z dzie-	.
.	.	16A-/JJ)	.	.	.	.	.
4.E-\ 4.AA-\ 4.DD-\	.	(>16A-</LL	.	.	(4cc\	-wczy-	.
.	.	16c</	.	.	.	.	.
.	.	16A-</	.	.	.	.	.
.	.	16e-/	.	.	.	.	.
.	.	16c</	.	.	8a-/)	-ną	.
.	.	16A-</JJ)	.	.	.	.	.
=8	=8	=8	=8	=8	=8	=8	=8
4D-\ 4AA-\ 4DD-\	.	(>16F</LL	.	.	8a-/	Dzie-	.
.	.	16d-/	<	.	.	.	.
.	.	16A-</	.	.	8b-\	-ćmi	<
.	.	16f/	.	.	.	.	.
8C\ 8CC\	.	16d-/	.	.	8cc\	po	.
.	.	16A-</JJ)	.	.	.	.	.
4.BB-\ 4.BBB-\	.	(>16F</LL	.	.	4dd-\	je-	.
.	.	16d-/	[	.	.	.	[
.	.	16B-</	.	.	.	.	.
.	.	16f/	.	.	.	.	.
.	.	16d-/	.	.	8dd-\	-dnej	.
.	.	16B-</JJ)	.	.	.	.	.
!!LO:LB:g=original
=9	=9	=9	=9	=9	=9	=9	=9
4.EE-\ 4.EEE-\	.	(>16Gn</LL	.	.	8dd-\	łą-	.
.	.	16e-/	.	.	.	.	.
.	.	.	.	.	16qqee-/LL	.	.
.	.	.	.	.	16qqdd-/JJ	.	.
.	.	16d-/	.	.	8cc\	-ce	.
.	.	16gn/	.	.	.	.	.
.	.	16e-/	.	.	8b-\	plą-	.
.	.	16d-/JJ)	.	.	.	.	.
4.AA-\ 4.AAA-\	.	(>16A-</LL	>	.	(4ee-\	-sa-	.
.	.	16e-/	.	.	.	.	.
.	.	16c/	.	.	.	.	.
.	.	16a-/	.	.	.	.	.
.	.	16e-/	]	.	8a-/)	-li	.
.	.	16c/JJ)	.	.	.	.	.
=10	=10	=10	=10	=10	=10	=10	=10
4.G-X/ 4.GG-X/	.	(16A-/LL	.	.	8a-/	Jed-	.
.	.	16e-/	.	.	.	.	.
.	.	.	.	.	16qqa-/LL	.	.
.	.	.	.	.	16qqcc/JJ	.	.
.	.	16c/	.	.	8b-\	-ną	.
.	.	16a-/	.	.	.	.	.
.	.	16e-/	.	.	8a-/	pios-	.
.	.	16c/JJ)	.	.	.	.	.
4.F/ 4.FF/	.	(16A-/LL	.	.	(4a-/	-necz-	.
.	.	16f/	.	.	.	.	.
.	.	16d-/	.	.	.	.	.
.	.	16a-/	.	.	.	.	.
.	.	16f/	.	.	8dd-\)	-kę	.
.	.	16d-/JJ)	.	.	.	.	.
!!LO:LB:g=original
=11	=11	=11	=11	=11	=11	=11	=11
4.E-/ 4.EE-/	.	(16A-/LL	.	.	8cc\	ra-	.
.	.	16g-/	<	.	.	.	.
!	!	!	!	!	!	!	!LO:DY:a
.	.	16c/	.	.	8dd-\	-zem	<
.	.	16a-/	.	.	.	.	.
.	.	16g-/	.	.	8ee-\	śpie-	.
.	.	16c/JJ)	.	.	.	.	.
8D-/L 8DD-/	.	(16A-/LL	[	.	4ff\	-wa-	.
.	.	16f/	.	.	.	.	[
8C/ 8CC/	.	16d-/	.	.	.	.	.
.	.	16a-/	.	.	.	.	.
8C-X/J 8CC-X/	.	16f/	.	.	8ff\	-li	.
.	.	16d-/JJ)	.	.	.	.	.
=12	=12	=12	=12	=12	=12	=12	=12
4BB-/ 4BBB-/	.	(16B-/LL	.	.	8gg-\	Ja-	.
.	.	16g-/	.	.	.	.	.
.	.	16d-/	.	.	8dd-\	-nek	.
.	.	16b-/	.	.	.	.	.
8GG-/ 8GGG-/	.	16g-/	.	.	8b-\	z Ha-	.
.	.	16d-/JJ)	.	.	.	.	.
4.FF/ 4.FFF/	.	(16A-/LL	.	.	(4a-/	-li-	.
.	.	16f/	.	.	.	.	.
.	.	16d-/	.	.	.	.	.
.	.	16a-/	.	.	.	.	.
.	.	16f/	.	.	8dd-\)	-ną	.
.	.	16d-/JJ)	.	.	.	.	.
!!LO:LB:g=original
=13	=13	=13	=13	=13	=13	=13	=13
*	*	*	*^	*	*	*	*^
4.AA-/ 4.AAA-/	.	(16A-/LL	.	.	.	16cc/LL	Ja-	.	.
.	.	16g-/	>	.	.	16e-/JJ	.	.	.
!	!	!	!	!	!	!	!	!LO:DY:a	!
.	.	16c/	.	>	.	8.b-/	-nek	>	>
.	.	16a-/	.	.	.	.	.	.	.
.	.	16g-/	.	.	.	.	.	.	.
.	.	16c/JJ)	.	.	.	16a-/	z Ha -	.	.
4.D-/ 4.DD-/	.	(16A-/LL	]	.	.	8a-/	-li-	.	.
.	.	16f/	.	.	.	.	.	.	.
.	.	16d-/	.	.	.	8d-/	-ną	]	.
.	.	16a-/	.	.	.	.	.	.	.
.	.	16f/	.	.	.	8r	.	.	.
.	.	16d-/JJ)	.	.	.	.	.	.	.
*	*	*	*v	*v	*	*	*	*v	*v
=14	=14	=14	=14	=14	=14	=14	=14
4.G-/ 4.AA-/	.	16r	.	.	8e-/	Czer-	.
.	.	(16A-/LL	.	.	.	.	.
.	.	.	.	.	8qg-/	.	.
.	.	16c/	.	.	8f/	-wo-	.
.	.	16e-/	.	.	.	.	.
.	.	16c/	.	.	8e-/	-nej	.
.	.	16A-/JJ)	.	.	.	.	.
4.F/ 4.AA-/	.	16r	.	.	4b-/	Ja-	.
.	.	(16A-/LL	.	.	.	.	.
.	.	16d-/	.	.	.	.	.
.	.	16f/	.	.	.	.	.
.	.	16d-/	.	.	8a-/	-nek	.
.	.	16A-/JJ)	.	.	.	.	.
!!LO:PB:g=original
=15	=15	=15	=15	=15	=15	=15	=15
4.E-/ 4.AA-/	.	16r	.	.	8cc\	nar-	.
.	.	(16A-/LL	.	.	.	.	.
.	.	.	.	.	16qqdd-/LL	.	.
.	.	.	.	.	16qqcc/JJ	.	.
.	.	16c/	.	.	8b-\	-wał	.
.	.	16g-/	.	.	.	.	.
.	.	16c/	.	.	8cc\	Ka-	.
.	.	16A-/JJ)	.	.	.	.	.
4.D-/	.	16r	.	.	4ee-\	-li-	.
.	.	(16A-/LL	.	.	.	.	.
.	.	16d-/	.	.	.	.	.
.	.	16f/	.	.	.	.	.
.	.	16d-/	.	.	8dd-\	-ny	.
.	.	16A-/JJ)	.	.	.	.	.
=16	=16	=16	=16	=16	=16	=16	=16
4.BB-/	.	16r	.	.	16dd-\LL	Stro-	.
.	.	(16B-/LL	.	.	16ff\JJ	.	.
.	.	16d-/	.	.	8ee-\	-ił	.
.	.	16f/	.	.	.	.	.
.	.	16d-/	.	.	8dd-\	w nią	.
.	.	16B-/JJ)	.	.	.	.	.
(8AA-/L	.	16r	.	.	8cc\L	zło-	.
.	.	8f/L 8c/	.	.	.	.	.
.	.	.	.	.	8qee-/	.	.
8BB-/	.	.	.	.	8dd-\J	.	.
.	.	8f/ 8d-/	.	.	.	.	.
8AA-/J)	.	.	.	.	8cc\	-te	.
.	.	16f/Jk 16c/	.	.	.	.	.
!!LO:LB:g=original
=17	=17	=17	=17	=17	=17	=17	=17
(8GGn/L	.	16r	.	.	16b-\LL	wło-	.
.	.	8f/L 8B-/	.	.	16dd-\JJ	.	.
8C/	.	.	.	.	8cc\	-sy	.
.	.	8en/ 8B-/	.	.	.	.	.
8CC/J)	.	.	.	.	8gn/	Ha-	.
!	!	!LO:TX:i:b:t=poco rit.	!	!	!	!	!
.	.	16e/Jk 16B-/	.	.	.	.	.
!	!	!	!	!	!LO:TX:i:a:t=poco rit.	!	!
(8FF/L	.	16r	.	.	8a-/L	-li-	.
.	.	8f/L 8A-/	.	.	.	.	.
.	.	.	.	.	8qcc/	.	.
8EE-/	.	.	.	.	8b-/J	.	.
.	.	8g-X/ 8B-/	.	.	.	.	.
8AA-/J)	.	.	.	.	8g-X/	-ny	.
.	.	16g-/Jk 16c/	.	.	.	.	.
=18	=18	=18	=18	=18	=18	=18	=18
*	*	*^	*	*	*	*	*
!	!	!LO:TX:B:a:t=a tempo	!	!	!	!LO:TX:B:a:t=a tempo	!	!
4.D-/ 4.DD-/	.	(16f/LL	4.ryy	.	.	8f/	A	.
.	.	16d-/	.	.	.	.	.	.
.	.	16g-/ 16e-/	.	.	.	8g-/	gdy	.
!	!	!	!LO:TX:b:t=cre_scen_do:ext2=ud:problem:dynamics with extension lines	!LO:HP:b:t=cre_scen_do	!	!LO:TX:a:t=cre_scen_do:ext2=ud:problem:dynamics with extension lines	!	!LO:HP:a:t=cre_scen_do
.	.	16d-/	.	<	.	.	.	<
.	.	16gn/ 16en/	.	.	.	8gn/	w kry-	.
.	.	16d-/JJ)	.	.	.	.	.	.
(8D-/L	.	4a-/	16f\LL	.	.	4a-/	-ni-	.
.	.	.	16d-\	.	.	.	.	.
8C/	.	.	16f\	.	.	.	.	.
.	.	.	16d-\	.	.	.	.	.
8C-X/J)	.	8a-/	16f\	.	.	8a-/	-cy	.
.	.	.	16d-\JJ	.	.	.	.	.
*	*	*v	*v	*	*	*	*	*
!!LO:LB:g=original
=19	=19	=19	=19	=19	=19	=19	=19
(8BB-/L	.	16r	.	.	8b-\	się	.
.	.	8b-/L 8f/ 8dn/	.	.	.	.	.
8AAn/	.	.	.	.	8cc\	prze-	[
.	.	8cc/ 8f/ 8c/	[	.	.	.	.
8AA-X/J)	.	.	.	.	8ddn\	-glą-	.
.	.	16ddn/Jk 16b-/ 16f/ 16d/	.	.	.	.	.
*ped	*	*	*	*	*	*	*
4.G-X/ 4.GG-X/	.	16r	.	.	(4ff\	-da-	.
.	.	(16ff/LL 16b-/ 16g-'\	.	.	.	.	.
.	.	16ff/ 16b-/ 16g-'\	.	.	.	.	.
.	.	16ff/ 16b-/ 16g-'\	.	.	.	.	.
*Xped	*	*	*	*	*	*	*
.	.	16ee-/ 16b-/ 16g-'\	.	.	8ee-\)	-ła	.
.	.	16ee-/JJ 16b-/ 16g-'\)	.	.	.	.	.
=20	=20	=20	=20	=20	=20	=20	=20
*^	*	*	*	*	*	*	*
!	!	!	!	!	!	!	!	!LO:DY:rj
8Gn/L	4.GGn\	.	16r	f	.	(8dd-X'\	Z Jan-	f
.	.	.	8dd-X/L 8en/ 8B-/	.	.	.	.	.
8G/	.	.	.	.	.	8cc'\	-kiem	.
.	.	.	8cc/ 8e/ 8c/	.	.	.	.	.
8G/J	.	.	.	.	.	8b-'\)	się	.
.	.	.	16b-/Jk 16e/ 16d-/	.	.	.	.	.
*	*ped	*	*	*	*	*	*	*
4.ryy	8AA-\L	.	16a-/LL 16f/ 16d-\	.	.	(4a-/	śmia-	.
.	.	.	16aa-/ 16ff'\	.	.	.	.	.
.	8f\J 8d-\ 8A-\	.	16ff/ 16dd-'\	.	.	.	.	.
.	.	.	16dd-/JJ 16a-'\	.	.	.	.	.
*	*Xped	*	*	*	*	*	*	*
.	8r	.	16a-/LL 16f'/	.	.	8f/)	-ła,	.
.	.	.	16f/JJ 16d-'/	.	.	.	.	.
*v	*v	*	*	*	*	*	*	*
!!LO:LB:g=original
=21	=21	=21	=21	=21	=21	=21	=21
*	*	*	*^	*	*	*	*
4.AA-/ 4.AAA-/	.	8r	.	.	.	16g-/LL	Z Jan-	.
!	!	!	!	!	!	!	!	!LO:DY:a
.	.	.	.	.	.	16b-/JJ	.	>
!	!	!	!	!LO:HP:a	!	!	!	!
.	.	8g-/L 8c/ 8A-/	>	>	.	8a-/	-kiem	.
.	.	8g-/J 8c/ 8A-/	.	.	.	16e-/LL	się	]
.	.	.	.	.	.	16f/JJ	.	.
4D-\ 4DD-\	.	16r	]	.	.	8e-/	śmia-	.
.	.	16A-</'<LL 16F</	<	.	.	.	.	.
.	.	16d-/ 16A-'/	.	.	.	8d-/	-ła.	.
.	.	16f/ 16d-'/	.	.	.	.	.	.
8r	.	16a-/ 16f'/	.	.	.	8r	.	.
.	.	16dd-/JJ 16a-'/	[	.	.	.	.	.
*	*	*	*v	*v	*	*	*	*
=22	=22	=22	=22	=22	=22	=22	=22
.	.	16qqff/LL	.	.	.	.	.
.	.	16qqggn/JJ	f	.	.	.	.
8DD-\L	.	(16ff\LL	.	.	2.r	.	.
.	.	16een\	.	.	.	.	.
8d-\ 8A-\ 8D-\	.	16ff\	.	.	.	.	.
.	.	16aa-\	.	.	.	.	.
8Bn\J 8A-\ 8Dn\	.	16ggn\	.	.	.	.	.
.	.	16ff\JJ)	.	.	.	.	.
*ped	*	*	*	*	*	*	*
8EE-\L	.	(32ee-X\LLL	.	.	.	.	.
.	.	32ccc\	.	.	.	.	.
.	.	32aa-\	.	.	.	.	.
.	.	32ff\JJJ	.	.	.	.	.
8c\J 8A-\ 8E-\	.	16ee-\LL	.	.	.	.	.
.	.	16cc\	.	.	.	.	.
*Xped	*	*	*	*	*	*	*
8r	.	16a-\	.	.	.	.	.
.	.	16f\JJ)	.	.	.	.	.
!!LO:PB:g=original
=23	=23	=23	=23	=23	=23	=23	=23
*ped	*	*	*	*	*	*	*
8EE-\L	.	(32e-/LLL	.	.	2.r	.	.
.	.	32en/	.	.	.	.	.
.	.	32f/	.	.	.	.	.
.	.	32f#/JJJ	.	.	.	.	.
8d-\ 8B-\ 8E-\	.	32gn\LLL	.	.	.	.	.
.	.	32ffn\	.	.	.	.	.
.	.	32ee-X\	.	.	.	.	.
.	.	32dd-\JJJ	.	.	.	.	.
*Xped	*	*	*	*	*	*	*
8d-\J 8Gn\ 8E-\	.	32b-/LLL	>	.	.	.	.
.	.	32f/	.	.	.	.	.
.	.	32g/	.	.	.	.	.
.	.	32b-/JJJ)	]	.	.	.	.
8A-\ 8AA-\	.	8a-/L	.	.	.	.	.
8r	.	8a-/ 8e/ 8c/	.	.	.	.	.
8r	.	8a-/J 8e/ 8c/	.	.	.	.	.
=24	=24	=24	=24	=24	=24	=24	=24
!	!	!	!	!	!LO:TX:i:a:t=Żwawiej	!	!
8qF/	.	.	.	.	.	.	.
4.E-/ 4.AA-^/	.	8r	.	.	16e-/LL	Przy	.
.	.	.	.	.	32f/L	.	.
.	.	.	.	.	32gn/JJJ	.	.
.	.	8a-/L 8e-/ 8c/	.	.	8a-/	żni-	.
.	.	8gn/J 8e-/ 8d-/	.	.	8b-/	-wie	.
8qF/	.	.	.	.	.	.	.
4.E-/ 4.AA-^/	.	8r	.	.	4cc\	w Jan-	.
.	.	8a-/L 8e-/ 8c/	.	.	.	.	.
.	.	8a-/J 8e-/ 8c/	.	.	8cc\	-ku	.
!!LO:LB:g=original
=25	=25	=25	=25	=25	=25	=25	=25
8qF/	.	.	.	.	8qee-/	.	.
4.E-/ 4.AA-^/	.	8r	.	.	16dd-\LL	ta-	.
.	.	.	.	.	16cc\JJ	.	.
.	.	8gn/L 8e-/ 8B-/	.	.	8dd-\	-ka	.
.	.	8g/J 8e-/ 8d-/	.	.	8b-\	o-	.
8qF/	.	.	.	.	.	.	.
4.E-/ 4.AA-^/	.	8r	.	.	4ee-\	-cho-	.
.	.	8a-/L 8e-/ 8c/	.	.	.	.	.
.	.	8cc/J 8a-/ 8e-/	.	.	8cc\	-ta	.
=26	=26	=26	=26	=26	=26	=26	=26
*ped	*	*	*	*	*	*	*
8EE-\L	.	8r	.	.	16dd-\LL	Że	.
.	.	.	.	.	16ff\JJ	.	.
8d-\ 8Gn\ 8E-\	.	8eee-\: 8bb-\: 8ggn\: 8dd-^:\	.	.	8ee-\	śierp	.
8d-\J 8G\ 8E-\	.	8bb-\: 8gg\: 8ee-\: 8b-^:\	.	.	8b-\	mi-	.
*Xped	*	*	*	*	*	*	*
.	.	.	.	.	.	.	.
*ped	*	*	*	*	*	*	*
8AA-\L	.	8r	.	.	(4cc\	-go-	.
8c\ 8A-\ 8E-\	.	8ccc\: 8aa-\: 8ee-\: 8cc^:\	.	.	.	.	.
8c\J 8A-\ 8E-\	.	8aa-\: 8ee-\: 8cc\: 8a-^:\	.	.	8a-/)	-tał	.
*Xped	*	*	*	*	*	*	*
.	.	.	.	.	.	.	.
!!LO:LB:g=original
=27	=27	=27	=27	=27	=27	=27	=27
!	!	!	!	!	!	!	!LO:DY:rj
8B-\:L 8Gn\: 8E-\: 8BB-:\	.	8ggn\: 8ee-\: 8b-\: 8gn:\	f	.	16gn\LL	jak	f
.	.	.	.	.	16ee-\JJ	.	.
8B-\: 8A-\: 8F\: 8BB-:\	.	8aa-\: 8ddn\: 8b-\: 8a-:\	.	.	16f/LL	bły-	.
.	.	.	.	.	16a-/JJ	.	.
8B-\:J 8A-\: 8F\: 8BB-:\	.	8dd/: 8b-/: 8a-/: 8dn:/	.	.	16cc\LL	-ska-	.
.	.	.	.	.	16b-\JJ	.	.
*ped	*	*	*	*	*	*	*
!	!	!LO:TUP:b	!	!	!	!	!
8EE-\L	.	(48b-/LLL	.	.	4b-\	-wi-	.
.	.	48a-/	.	.	.	.	.
.	.	48f/	.	.	.	.	.
.	.	48d/	.	.	.	.	.
.	.	48f/	.	.	.	.	.
.	.	48a-/JJJ)	.	.	.	.	.
!	!	!LO:TUP:a	!	!	!	!	!
8B-\ 8A-\ 8E-\	.	(48b-\LLL	.	.	.	.	.
.	.	48dd\	.	.	.	.	.
.	.	48ff\	.	.	.	.	.
.	.	48aa-\	.	.	.	.	.
.	.	48bb-\	.	.	.	.	.
.	.	48dddn\JJJ)	.	.	.	.	.
*Xped	*	*	*	*	*	*	*
8B-\J 8Gn\ 8E-\	.	16eee-\	.	.	8e-/	-ca	.
.	.	16r	.	.	.	.	.
=28	=28	=28	=28	=28	=28	=28	=28
*^	*	*^	*	*	*	*	*
!	!	!	!	!	!LO:DY:rj	!	!	!	!LO:DY:rj
16AA-/LL	4.AA-\	.	16f/LL	4.d-X\	p	.	16f/LL	Snać	p
16E-/J	.	.	16b-/J	.	.	.	16b-/JJ	.	.
8B-/	.	.	8f/	.	.	.	8f/	gdy	.
8E-/J	.	.	8gn/J	.	.	.	8gn/	z nią	.
16AA-/LL	4.AA-\	.	4.a-/	4.c\	.	.	4a-/	ra-	.
16E-/J	.	.	.	.	.	.	.	.	.
8A-/	.	.	.	.	.	.	.	.	.
8E-/J	.	.	.	.	.	.	8e-/	-zem	.
!!LO:LB:g=original
=29	=29	=29	=29	=29	=29	=29	=29	=29	=29
16AA-/LL	4.AA-\	.	16f/LL	4.d-\	.	.	16f/LL	mil-	.
16E-/J	.	.	16b-/J	.	.	.	16b-/JJ	.	.
8B-/	.	.	8f/	.	.	.	8f/	-sza	.
8E-/J	.	.	8gn/J	.	.	.	8gn/	ro-	.
16AA-/LL	4.AA-\	.	4.a-/	4.c\	.	.	(4a-/	-bo-	.
16E-/J	.	.	.	.	.	.	.	.	.
8A-/	.	.	.	.	.	.	.	.	.
8E-/J	.	.	.	.	.	.	8cc\)	-ta	.
*v	*v	*	*	*	*	*	*	*	*
*	*	*v	*v	*	*	*	*	*
=30	=30	=30	=30	=30	=30	=30	=30
*ped	*	*	*	*	*	*	*
!	!	!	!	!	!LO:TX:i:a:t=cokolwiek zwolnić	!	!LO:DY:rj
4.F/ 4.FF/	.	8r	f	.	8ee-\	Choć	f
.	.	8an/L 8e-/ 8c/	.	.	8ff\	w po-	.
.	.	8a/J 8e-/ 8c/	.	.	8cc\	-tach	.
*Xped	*	*	*	*	*	*	*
.	.	.	.	.	.	.	.
4.BB-/	.	8r	.	.	4ee-^\	li-	.
.	.	(8a/L 8g-X/ 8c^/	.	.	.	.	.
.	.	8b-/J 8f/ 8d-/)	.	.	8dd-\	-ca.	.
!!LO:PB:g=original
=31	=31	=31	=31	=31	=31	=31	=31
*^	*	*^	*	*	*	*	*^
4.ryy	[4.E-\	.	(4a-X/	16c\LL	.	.	8cc\	Choć	.	.
.	.	.	.	16e-\	.	.	.	.	.	.
!	!	!	!	!	!LO:HP:b=2	!	!	!	!LO:DY:a	!
.	.	.	.	16f-X\	>	.	8dd-\	w po-	>	>
.	.	.	.	16B-\	.	.	.	.	.	.
.	.	.	8gn/	16e-\	.	.	8gn/	-tach	.	.
.	.	.	.	[16d-X\JJ	.	.	.	.	.	.
*	*	*below	*	*	*	*	*	*	*	*
!	!	!	!	!	!LO:HP:b=2	!	!	!	!	!
(16E-/LL	4E-\]	4	4b-/ 4d-/])	4.ryy	>	.	(4b-/	li-	]	.
16En/	.	.	.	.	.	.	.	.	.	.
16F/	.	.	.	.	.	.	.	.	.	.
16Gn/J)	.	.	.	.	.	.	.	.	.	.
8A-/J	8A-\	.	8a-/ 8c/	.	]	.	8a-/)	-ca.	.	.
*v	*v	*	*	*	*	*	*	*	*v	*v
*	*	*v	*v	*	*	*	*	*
=32	=32	=32	=32	=32	=32	=32	=32
!	!	!LO:TX:i:a:t=coraz więcej zwalniać	!	!	!	!	!
4r	.	4a-/ 4A-/	p	.	2.r	.	.
8r	.	8a-/ 8A-/	.	.	.	.	.
(4G-X\ 4E-\	.	4a-/ 4A-/	.	.	.	.	.
8E-/ 8AA-/)	.	8a-/ 8A-/	.	.	.	.	.
!!LO:LB:g=original
=33	=33	=33	=33	=33	=33	=33	=33
(4F\ (4D-\	.	4a-/ 4A-/	>	.	2.r	.	.
8D-/ 8FF/))	.	8a-/ 8A-/	.	.	.	.	.
(4E-/ (4GG-X/	.	4a-/ 4A-/	.	.	.	.	.
8C/ 8EE-/))	.	8a-/ 8A-/	]	.	.	.	.
=34	=34	=34	=34	=34	=34	=34	=34
*	*	*^	*	*	*	*	*
!	!	!LO:TX:i:b:t=molto legato	!	!LO:DY:rj	!	!LO:TX:i:a:t=Wolno\ndol.	!	!
4D-/ 4DD-/	.	4f/ 4d-/	4.A-\	p	.	(8f/	By-	.
.	.	.	.	.	.	8a-/	-li	.
8AA-/	.	8e-/ 8c/	.	.	.	8e-/	też	.
4D-/ 4DD-/	.	4f/ 4d-/	4.A-\	.	.	4f/	zaw-	.
8AA-/	.	8e-/ 8c/	.	.	.	8e-/)	-sze	.
=35	=35	=35	=35	=35	=35	=35	=35	=35
4D-/ 4DD-/	.	4f/ 4d-/	4.A-\	.	.	(8f/	ra-	.
.	.	.	.	.	.	8a-/	-zem	.
8AA-/	.	8e-/ 8c/	.	.	.	8e-/	w Ko-	.
4D-/ 4DD-/	.	4f/ 4d-/	4.A-\	.	.	4f/	-ście-	.
8AA-/	.	8e-/ 8c/	.	.	.	8e-/)	-le	.
!!LO:LB:g=original
=36	=36	=36	=36	=36	=36	=36	=36	=36
(8D-/L 8FF/	.	(8d-/L	4.A-\	.	.	(8d-/	J	.
8C/ 8EE-/	.	8e-/	.	.	.	8e-/	w każ-	.
8D-/J 8DD-/)	.	8f/J 8d-/)	.	.	.	8f/	-de	.
4C/ 4CC/	.	4g-/ 4e-/	4.A-\	.	.	4g-/	Świę-	.
8D-/ 8DD-/	.	8f/ 8d-/	.	.	.	8f/)	-to,	.
=37	=37	=37	=37	=37	=37	=37	=37	=37
*	*	*	*^	*	*	*	*	*
(8G-/L 8GG-/	.	(8e-/L 8c/	4.A-\	4.ryy	<	.	(8e-/	w każ-	.
!	!	!	!	!	!	!	!	!	!LO:DY:a
8F/ 8FF/	.	8f/ 8d-/	.	.	.	.	8f/	-dą	<
8E-/J 8EE-/)	.	8g-/J 8e-/)	.	.	.	.	8g-/	Nie-	.
4D-/ 4DD-/	.	4.a-/	4.A-\	4f/	[	.	4a-/	-dzie-	[[
8C/ 8CC/	.	.	.	8e-/	.	.	8a-/)	-lę	.
=38	=38	=38	=38	=38	=38	=38	=38	=38	=38
(4BB-/ 4BBB-/	.	4.dd-/ 4.b-/ 4.f/ 4.d-/	4.ryy	4.ryy	.	.	8dd-\	Dzie-	.
.	.	.	.	.	.	.	8dd-\	-wcze	.
8D-/ 8DD-/	.	.	.	.	.	.	8dd-\	pa-	.
4.F/ 4.FF/)	.	4.cc/	4.f\ 4.c\	8b-/L	.	.	4cc\	-trza-	.
.	.	.	.	16a-/L	.	.	.	.	.
.	.	.	.	16gn/J	.	.	.	.	.
.	.	.	.	8a-/J	.	.	16cc\	-ło	.
.	.	.	.	.	.	.	16cc\	na	.
*	*	*	*v	*v	*	*	*	*	*
!!LO:LB:g=original
=39	=39	=39	=39	=39	=39	=39	=39	=39
(4GG-/ 4GGG-/	.	4.b-/ 4.g-X/ 4.d-/ 4.B-/	4.ryy	.	.	8b-\	Świę-	.
!	!	!	!	!	!	!	!	!LO:DY:a
.	.	.	.	>	.	8b-\	-tych	>
8BB-/ 8BBB-/	.	.	.	.	.	8b-\	z u-	.
4.D-/ 4.DD-/)	.	8g-/L	4.a-/ 4.d-/ 4.A-/	.	.	4a-/	-bo-	.
.	.	16f/L	.	]	.	.	.	]
.	.	16e-/J	.	.	.	.	.	.
.	.	8f/J	.	.	.	8a-/	-czy	.
=40	=40	=40	=40	=40	=40	=40	=40	=40
*^	*	*	*	*	*	*	*	*
4.ryy	8BB-\L	.	(<8a-/L 8dn/	4B-\	<	.	8a-/	Ja-	.
!	!	!	!	!	!	!	!	!	!LO:DY:a
.	8E-\	.	8gn/ 8e-/	.	.	.	8gn/	-nek	<
.	[>8A-\J 8AA-\	.	8g-X/J 8c/)	8ryy	[	.	8g-X/	wiéj	.
8A-/L]	8D-\L	.	(4.f/	8d-X\L	.	.	4f/	o-	[
8An/	8C\	.	.	8e-\	.	.	.	.	.
8B-/J	8BB-\J	.	.	[8d-\J)	.	.	8f/	-czy	.
*v	*v	*	*	*	*	*	*	*	*
*	*	*v	*v	*	*	*	*	*
=41	=41	=41	=41	=41	=41	=41	=41
4.E-/ 4.EE-/	.	4.g-/ 4.d-/] 4.B-/	>	.	8g-/	Ja-	.
!	!	!LO:TX:i:a:t=rall.	!	!	!LO:TX:i:a:t=rall.	!	!LO:DY:a
.	.	.	.	.	8b-/	-nek	>
.	.	.	.	.	16a-/LL	wiéj	.
.	.	.	.	.	16g-/JJ	.	.
4AA-/	.	(8f/L 8d-/	]	.	8f/	o-	]
.	.	8e-/J 8c/)	.	.	8e-/	-czy.	.
8A-\	.	8r	.	.	8r	.	.
!!LO:PB:g=original
=42	=42	=42	=42	=42	=42	=42	=42
*^	*	*^	*	*	*	*	*
8AA-/L	4.AA-\	.	4.a-/	4.ryy	.	.	8a-/	Po	.
8A-/	.	.	.	.	.	.	8a-/	na-	.
8A-/J	.	.	.	.	.	.	8a-/	-bo-	.
!	!	!	!	!	!LO:HP:a	!	!	!	!
8AA-/L	4.AA-\	.	4.b-/	8a-\L	<	.	4b-\	-żeń-	.
8A-/	.	.	.	16g-X\L	.	.	.	.	.
.	.	.	.	16f\J	.	.	.	.	.
8A-/J	.	.	.	8g-\J	.	.	8b-\	-stwie	.
=43	=43	=43	=43	=43	=43	=43	=43	=43	=43
8AA-/L	4.AA-\	.	4.cc/	8e-\L	.	.	8cc\	gdy	.
8A-/	.	.	.	8a-\	.	.	8cc\	wy-	.
8A-/J	.	.	.	[8g-\J	.	.	8cc\	-cho-	.
8AA-/L	4.AA-\	.	4.dd-/	8g-\L]	.	.	4dd-\	-dzi-	.
8A-/	.	.	.	16f\L	.	.	.	.	.
.	.	.	.	16e-\J	.	.	.	.	.
8A-/J	.	.	.	8f\J	.	.	8dd-\	-li	.
*	*	*	*v	*v	*	*	*	*	*
=44	=44	=44	=44	=44	=44	=44	=44	=44
*	*^	*	*	*	*	*	*	*
4.A-/	4.AA-\	(<8C/L	.	(8ee-/L 8g-/	.	.	8ee-\	Chłop-	.
.	.	8D-/	.	8dd-/ 8f/	.	.	8dd-\	-cu	.
.	.	8E-/J)	.	8cc/J 8e-/)	.	.	8cc\	o	.
4.A-/	4.AA-\	4F/	.	4b-/ 4d-/	.	.	4b-\	dzie-	.
.	.	8E-/	.	8cc/ 8e-/	.	.	8cc\	-wki	.
!!LO:LB:g=original
=45	=45	=45	=45	=45	=45	=45	=45	=45	=45
4.A-/	4.AA-\	(<8F/L	.	(8b-/L 8d-/	.	.	8b-\	gro-	.
.	.	8D-/	.	8dd-/ 8f/	.	.	8dd-\	-ma-	.
.	.	8F/J)	.	8b-/J 8d-/)	.	.	8b-\	-da	.
4.A-/ 4.E-/	4.AA-\	8ryy	.	(4cc/ (4e-/	.	.	4cc\	ca-	.
.	.	4ryy	.	.	.	.	.	.	.
.	.	.	.	8a-/ 8c/))	.	.	8a-/	-ła	.
*v	*v	*v	*	*	*	*	*	*	*
=46	=46	=46	=46	=46	=46	=46	=46
!	!	!	!	!	!LO:TX:i:a:t=cokolwiek prędzej	!	!LO:DY:rj
4AA-/ 4AAA-/	.	8r	p	.	16a-'^/	Ot!	p
.	.	.	.	.	16r	.	.
.	.	.	.	.	8qa-/	.	.
.	.	8g-/L 8c/ 8A-/	.	.	16g-/LL	ła-	.
.	.	.	.	.	16f/JJ	.	.
8r	.	8g-/J 8c/ 8A-/	.	.	16g-/LL	-dna	.
.	.	.	.	.	16e-/JJ	.	.
4D-/ 4DD-/	.	8r	.	.	(4d-/	pa-	.
.	.	8f/L 8d-/ 8A-/	.	.	.	.	.
8r	.	8f/J 8d-/ 8A-/	.	.	8f/)	-ra!	.
=47	=47	=47	=47	=47	=47	=47	=47
4.GG-/ 4.GGG-/	.	8r	.	.	8g-/	wszy-	.
.	.	8g-/L 8d-/ 8B-/	.	.	16b-/LL	-scy	.
.	.	.	.	.	16g-/JJ	.	.
.	.	8g-/J 8d-/ 8B-/	.	.	16b-\LL	mó-	.
.	.	.	.	.	16dd-\JJ	.	.
4.D-/ 4.DD-/	.	8r	.	.	4a-/	-wi-	.
.	.	8f/L 8d-/ 8A-/	.	.	.	.	.
.	.	8a-/J 8f/ 8d-/	.	.	8f/	-li	.
!!LO:LB:g=original
=48	=48	=48	=48	=48	=48	=48	=48
8B-\L 8BB-\	.	8dd-/L 8f/ 8d-/	<	.	8dd-'\	O-	.
!	!	!	!	!	!LO:TX:i:a:t=zwolnić	!	!
8B-\ 8BB-\	.	8dd-/ 8g-/ 8d-/	[	.	8dd-'\	-na	.
8B--\J 8BB--\	.	8ee-/J 8gn/ 8d-/	.	.	8ee-'\	się	.
*ped	*	*	*	*	*	*	*
!	!	!	!	!	!	!	!LO:DY:rj
8A-\L 8AA-\	.	16ff/:LL 16a-/: 16d-':/	f	.	(4ff\	śmia-	f
.	.	16aa-/ 16ff'/	.	.	.	.	.
8f\J 8d-\ 8A-\	.	16ff/ 16dd-'/	.	.	.	.	.
.	.	16dd-/ 16a-'/	.	.	.	.	.
*Xped	*	*	*	*	*	*	*
8r	.	16a-/ 16f'/	.	.	8dd-\)	-ła,	.
.	.	16f/JJ 16d-'/	.	.	.	.	.
=49	=49	=49	=49	=49	=49	=49	=49
4AA-/ 4AAA-/	.	8r	.	.	16cc\LL	O-	.
.	.	.	.	.	16b-\JJ	.	.
.	.	8g-/L 8c/ 8A-/	.	.	16f/LL	-na	.
.	.	.	.	.	16g-/JJ	.	.
8r	.	8g-/J 8c/ 8A-/	.	.	16e-/LL	się	.
.	.	.	.	.	16a-/JJ	.	.
4D-/ 4DD-/	.	8r	.	.	4a-/	śmia-	.
.	.	4f/ 4d-/ 4A-/	.	.	.	.	.
8r	.	.	.	.	8d-/	-ła.	.
!!LO:LB:g=original
=50	=50	=50	=50	=50	=50	=50	=50
.	.	16qqf/LL	.	.	.	.	.
.	.	16qqg-/JJ	.	.	.	.	.
*^	*	*	*	*	*	*	*
!	!	!	!	!LO:DY:rj	!	!	!	!
8d-/L	4.D-\	.	(16f/LL	f	.	2.r	.	.
.	.	.	16e-/	.	.	.	.	.
8A-/	.	.	16f/	.	.	.	.	.
.	.	.	16a-/	.	.	.	.	.
8c/J	.	.	16e-/	.	.	.	.	.
.	.	.	16a-/JJ)	.	.	.	.	.
8d-/L	4.D-\	.	(32f\LLL	.	.	.	.	.
.	.	.	32a-\	.	.	.	.	.
.	.	.	32dd-\	.	.	.	.	.
.	.	.	32ff\JJJ	.	.	.	.	.
8A-/	.	.	8.ee-\L	.	.	.	.	.
8F/J	.	.	.	.	.	.	.	.
.	.	.	16dd-\Jk)	.	.	.	.	.
*v	*v	*	*	*	*	*	*	*
=51	=51	=51	=51	=51	=51	=51	=51
*ped	*	*	*	*	*	*	*
8BB-\L	.	(32dd-\LLL	.	.	2.r	.	.
.	.	32an\	.	.	.	.	.
.	.	32b-\	.	.	.	.	.
.	.	32dd-\JJJ	.	.	.	.	.
8g-\ 8d-\ 8B-\	.	32gg-\LLL	.	.	.	.	.
.	.	32cc\	<	.	.	.	.
.	.	32dd-\	.	.	.	.	.
.	.	32gg-\JJJ	.	.	.	.	.
8GG-\J	.	32bb-\LLL	.	.	.	.	.
*Xped	*	*	*	*	*	*	*
.	.	32ff\	.	.	.	.	.
.	.	32gg-\	.	.	.	.	.
.	.	32bb-\JJJ)	[	.	.	.	.
*ped	*	*	*	*	*	*	*
8DD-\L	.	(32ddd-\LLL	.	.	.	.	.
.	.	32ggn\	.	.	.	.	.
.	.	32aa-X\	.	.	.	.	.
.	.	32fff\JJJ	.	.	.	.	.
8f\ 8d-\ 8A-\	.	8.eee-\L	.	.	.	.	.
8d-\J 8A-\ 8F\	.	.	.	.	.	.	.
*Xped	*	*	*	*	*	*	*
.	.	16ddd-\Jk)	.	.	.	.	.
!!LO:PB:g=original
=52	=52	=52	=52	=52	=52	=52	=52
*ped	*	*	*	*	*	*	*
8FF\L	.	(32ddd-\LLL	.	.	2.r	.	.
.	.	32ccc\	.	.	.	.	.
.	.	32aan\	.	.	.	.	.
.	.	32ff\JJJ	.	.	.	.	.
8e-\ 8An\ 8F\	.	16gg-\LL	.	.	.	.	.
.	.	32aa-X\L	.	.	.	.	.
.	.	32gg-\JJJ	.	.	.	.	.
8e-\J 8A\ 8F\	.	16ff\LL	.	.	.	.	.
*Xped	*	*	*	*	*	*	*
.	.	16cc\JJ)	.	.	.	.	.
8FF\L	.	(32ee-\LLL	.	.	.	.	.
.	.	32dd-\	.	.	.	.	.
.	.	32cc\	.	.	.	.	.
.	.	32dd-\JJJ)	.	.	.	.	.
8f\ 8d-\ 8B-\	.	(64aa-\LLLL	.	.	.	.	.
.	.	64ggn\	>	.	.	.	.
.	.	64gg-X\	.	.	.	.	.
.	.	64ff\	.	.	.	.	.
.	.	64ff-X\	.	.	.	.	.
.	.	64ee-\	.	.	.	.	.
.	.	64ee--\	.	.	.	.	.
.	.	64dd-\JJJJ)	.	.	.	.	.
!	!	!LO:TUP:b	!	!	!	!	!
8d-\J 8B-\ 8F\	.	(72cc/LLLL	.	.	.	.	.
.	.	72cc-X/	.	.	.	.	.
.	.	72b-/	.	.	.	.	.
.	.	72b--/	.	.	.	.	.
.	.	72a-/	.	.	.	.	.
.	.	72gn/	.	.	.	.	.
.	.	72g-X/	]	.	.	.	.
.	.	72f/	.	.	.	.	.
.	.	72en/JJJJ)	.	.	.	.	.
!!LO:LB:g=original
=53	=53	=53	=53	=53	=53	=53	=53
8c\L 8An\ 8F\	.	8ft</L	<	.	2.r;	.	.
.	.	16qqen/LL	.	.	.	.	.
.	.	16qqf/JJ	.	.	.	.	.
!	!	!LO:TX:i:a:t=ritenuto	!	!	!	!	!
8d-\ 8B-\ 8F-X\	.	8g-XT</	.	.	.	.	.
.	.	16qqf/LL	[	.	.	.	.
.	.	16qqg-/JJ	.	.	.	.	.
8d-\J 8B-\ 8E-\	.	8gnt</J	.	.	.	.	.
.	.	16qqf/LL	.	.	.	.	.
.	.	16qqg/JJ	.	.	.	.	.
*ped	*	*	*	*	*	*	*
8c\: 8G-X\: 8E-\: 8AA-:\	.	4a-XT<;/	.	.	.	.	.
!	!	!LO:TX:i:a:t=m.g.	!	!	!	!	!
8ccc>/ 8gg-X>/ 8ee->/	.	.	.	.	.	.	.
.	.	16qqgn/LL	.	.	.	.	.
.	.	16qqa-/JJ	.	.	.	.	.
.	.	8qcc/	.	.	.	.	.
*Xped	*	*	*	*	*	*	*
8r;	.	16.b-;/LL	.	.	.	.	.
.	.	32a-/JJk	.	.	.	.	.
=54	=54	=54	=54	=54	=54	=54	=54
!!!OMD:Primo tempo.
*ped	*	*	*	*	*	*	*
!	!	!	!	!	!	!	!LO:DY:rj
8D-\L 8DD-\	.	(32a-\LLL	p	.	8a-/	La-	p
.	.	32dd-\	.	.	.	.	.
.	.	32ff\	.	.	.	.	.
.	.	32aa-\JJJ	.	.	.	.	.
8A-\	.	32f\LLL	.	.	8f/	-ta	.
.	.	32a-\	.	.	.	.	.
.	.	32dd-\	.	.	.	.	.
.	.	32ff\JJJ	.	.	.	.	.
8d-\J 8F\	.	32b-\LLL	.	.	8b-/	mi-	.
.	.	32dd-\	.	.	.	.	.
.	.	32ff\	.	.	.	.	.
*Xped	*	*	*	*	*	*	*
.	.	32bb-\JJJ)	.	.	.	.	.
*ped	*	*	*	*	*	*	*
8D-\L 8DD-\	.	(32a-\LLL	.	.	4a-/	-ja-	.
.	.	32cc\	.	.	.	.	.
.	.	32gg-\	.	.	.	.	.
.	.	32aa-\JJJ	.	.	.	.	.
8A-\	.	32a-\LLL	.	.	.	.	.
.	.	32cc\	.	.	.	.	.
.	.	32ee-\	.	.	.	.	.
.	.	32aa-\JJJ	.	.	.	.	.
8c\J 8G-\	.	32e-\LLL	.	.	8e-/	-ły	.
.	.	32a-\	.	.	.	.	.
.	.	32cc\	.	.	.	.	.
*Xped	*	*	*	*	*	*	*
.	.	32ee-\JJJ)	.	.	.	.	.
!!LO:LB:g=original
=55	=55	=55	=55	=55	=55	=55	=55
*ped	*	*	*	*	*	*	*
8D-\L 8DD-\	.	(32f\LLL	.	.	8f/	wzrósł	.
.	.	32a-\	.	.	.	.	.
.	.	32dd-\	.	.	.	.	.
.	.	32ff\JJJ	.	.	.	.	.
8A-\	.	32a-\LLL	.	.	8a-/	Ja-	.
.	.	32dd-\	.	.	.	.	.
.	.	32ff\	.	.	.	.	.
*Xped	*	*	*	*	*	*	*
.	.	32aa-\JJJ	.	.	.	.	.
*ped	*	*	*	*	*	*	*
8d-\J 8F\	.	32dd-\LLL	.	.	8dd-\	-nek	.
.	.	32ff\	.	.	.	.	.
.	.	32aa-\	.	.	.	.	.
.	.	32ddd-\JJJ)	.	.	.	.	.
8D-\L 8DD-\	.	(32cc\LLL	.	.	4cc\	ma-	.
.	.	32gg-\	.	.	.	.	.
.	.	32aa-\	.	.	.	.	.
.	.	32ccc\JJJ	.	.	.	.	.
8A-\	.	32ee-\LLL	.	.	.	.	.
.	.	32gg-\	.	.	.	.	.
.	.	32aa-\	.	.	.	.	.
.	.	32eee-\JJJ	.	.	.	.	.
8c\J 8G-\	.	32a-\LLL	.	.	8a-/	-ły	.
.	.	32cc\	.	.	.	.	.
.	.	32ee-\	.	.	.	.	.
*Xped	*	*	*	*	*	*	*
.	.	32aa-\JJJ)	.	.	.	.	.
=56	=56	=56	=56	=56	=56	=56	=56
*ped	*	*	*	*	*	*	*
8D-\L 8DD-\	.	32a-\LLL	.	.	8a-/	Ser-	.
.	.	32dd-\	.	.	.	.	.
.	.	32ff\	.	.	.	.	.
.	.	32aa-\JJJ	.	.	.	.	.
8d-\ 8A-\ 8F\	.	32b-\LLL	.	.	8b-\	-ce	.
.	.	32dd-\	.	.	.	.	.
.	.	32ff\	.	.	.	.	.
*Xped	*	*	*	*	*	*	*
.	.	32bb-\JJJ	.	.	.	.	.
8C\J 8CC\	.	32cc\LLL	.	.	8cc\	miał	.
.	.	32dd-\	.	.	.	.	.
.	.	32ff\	.	.	.	.	.
.	.	32ccc\JJJ	.	.	.	.	.
*ped	*	*	*	*	*	*	*
8BB-\L 8BBB-\	.	32dd-\LLL	.	.	4dd-\	dziel-	.
.	.	32ff\	.	.	.	.	.
.	.	32bb-\	.	.	.	.	.
.	.	32ddd-\JJJ	.	.	.	.	.
8f\ 8d-\ 8B-\	.	32ff\LLL	.	.	.	.	.
.	.	32bb-\	.	.	.	.	.
.	.	32ddd-\	.	.	.	.	.
.	.	32fff\JJJ	.	.	.	.	.
8d-\J 8B-\ 8F\	.	32dd-\LLL	.	.	8dd-\	-ne,	.
.	.	32ff\	.	.	.	.	.
.	.	32bb-\	.	.	.	.	.
*Xped	*	*	*	*	*	*	*
.	.	32ddd-\JJJ	.	.	.	.	.
!!LO:LB:g=original
=57	=57	=57	=57	=57	=57	=57	=57
*ped	*	*	*	*	*	*	*
8EE-\L 8EEE-\	.	32dd-\LLL	.	.	8dd-\	pos-	.
.	.	32ee-\	.	.	.	.	.
.	.	32ggn\	.	.	.	.	.
.	.	32bb-\JJJ	.	.	.	.	.
.	.	.	.	.	16qqee-/LL	.	.
.	.	.	.	.	16qqdd-/JJ	.	.
8d-\ 8Gn\ 8E-\	.	32cc\LLL	.	.	8cc\	-tać	.
.	.	32ee-\	.	.	.	.	.
.	.	32gg\	.	.	.	.	.
.	.	32ccc\JJJ	.	.	.	.	.
8d-\J 8G\ 8E-\	.	32b-\LLL	.	.	8b-\	przy-	.
.	.	32ee-\	.	.	.	.	.
*Xped	*	*	*	*	*	*	*
.	.	32gg\	.	.	.	.	.
.	.	32bb-\JJJ	.	.	.	.	.
*ped	*	*	*	*	*	*	*
8AA-\L 8AAA-\	.	32ee-\LLL	.	.	(4ee-\	-jem-	.
.	.	32aa-\	.	.	.	.	.
.	.	32ccc\	.	.	.	.	.
.	.	32eee-\JJJ	.	.	.	.	.
8e-\J 8c\ 8A-\	.	32cc\LLL	.	.	.	.	.
.	.	32ee-\	.	.	.	.	.
.	.	32aa-\	.	.	.	.	.
*Xped	*	*	*	*	*	*	*
.	.	32ccc\JJJ	.	.	.	.	.
8r	.	32a-\LLL	.	.	8a-/)	-ną	.
.	.	32cc\	.	.	.	.	.
.	.	32ee-\	.	.	.	.	.
.	.	32aa-\JJJ	.	.	.	.	.
=58	=58	=58	=58	=58	=58	=58	=58
*ped	*	*	*	*	*	*	*
8GG-X\L	.	32a-\LLL	.	.	8a-/	Wszy-	.
.	.	32cc\	.	.	.	.	.
.	.	32ee-\	.	.	.	.	.
.	.	32aa-\JJJ	.	.	.	.	.
.	.	.	.	.	8qcc/	.	.
8e-\ 8c\ 8A-\ 8G-\	.	32b-\LLL	.	.	8b-\	-stkie	.
.	.	32cc\	.	.	.	.	.
.	.	32ee-\	.	.	.	.	.
.	.	32bb-\JJJ	.	.	.	.	.
8e-\J 8c\ 8A-\ 8G-\	.	32a-\LLL	.	.	8a-/	dzie-	.
.	.	32cc\	.	.	.	.	.
*Xped	*	*	*	*	*	*	*
.	.	32ee-\	.	.	.	.	.
.	.	32aa-\JJJ	.	.	.	.	.
*ped	*	*	*	*	*	*	*
8FF\L	.	32a-\LLL	.	.	4a-/	-wczę-	.
.	.	32dd-\	.	.	.	.	.
.	.	32ff\	.	.	.	.	.
.	.	32aa-\JJJ	.	.	.	.	.
8d-\ 8A-\	.	32f\LLL	.	.	.	.	.
.	.	32a-\	.	.	.	.	.
.	.	32dd-\	.	.	.	.	.
.	.	32ff\JJJ	.	.	.	.	.
8d-\J 8A-\ 8F\	.	32dd-\LLL	.	.	8dd-\	-ta	.
.	.	32ff\	.	.	.	.	.
.	.	32aa-\	.	.	.	.	.
*Xped	*	*	*	*	*	*	*
.	.	32ddd-\JJJ	.	.	.	.	.
!!LO:PB:g=original
=59	=59	=59	=59	=59	=59	=59	=59
*^	*	*	*	*	*	*	*
*ped	*	*	*	*	*	*	*	*
!	!	!	!	!	!	!	!	!LO:DY:a
8E-\L 8EE-\	4.ryy	.	32cc\LLL	<	.	8cc\	za	<
.	.	.	32gg-\	.	.	.	.	.
.	.	.	32aa-\	.	.	.	.	.
.	.	.	32ccc\JJJ	.	.	.	.	.
8c\ 8A-\ 8G-\	.	.	32dd-\LLL	.	.	8dd-\	nim	.
.	.	.	32gg-\	.	.	.	.	.
.	.	.	32aa-\	.	.	.	.	.
.	.	.	32ddd-\JJJ	.	.	.	.	.
8c\J 8A-\ 8G-\	.	.	32ee-\LLL	.	.	8ee-\	wzdy-	.
.	.	.	32gg-\	.	.	.	.	[
.	.	.	32aa-\	.	.	.	.	.
*Xped	*	*	*	*	*	*	*	*
.	.	.	32eee-\JJJ	[	.	.	.	.
4.d-/ 4.A-/ 4.F/	8D-\L	.	32ff\LLL	.	.	4ff\	-cha-	.
.	.	.	32aa-\	.	.	.	.	.
.	.	.	32ddd-\	.	.	.	.	.
.	.	.	32fff\JJJ	.	.	.	.	.
.	8C\	.	32ff\LLL	.	.	.	.	.
.	.	.	32aa-\	.	.	.	.	.
.	.	.	32ddd-\	.	.	.	.	.
.	.	.	32fff\JJJ	.	.	.	.	.
.	8C-X\J	.	32ff\LLL	.	.	8ff\	-ły	.
.	.	.	32aa-\	.	.	.	.	.
.	.	.	32ddd-\	.	.	.	.	.
.	.	.	32fff\JJJ	.	.	.	.	.
*v	*v	*	*	*	*	*	*	*
=60	=60	=60	=60	=60	=60	=60	=60
*ped	*	*	*	*	*	*	*
8BB-\L	.	32gg-\LLL	.	.	8gg-\	A-	.
.	.	32bb-\	.	.	.	.	.
.	.	32ddd-\	.	.	.	.	.
.	.	32ggg-\JJJ	.	.	.	.	.
8d-\ 8B-\ 8G-\	.	32dd-\LLL	.	.	8dd-\	-le	.
.	.	32gg-\	.	.	.	.	.
.	.	32bb-\	.	.	.	.	.
.	.	32ddd-\JJJ	.	.	.	.	.
8GG-\J	.	32b-\LLL	.	.	8b-\	da-	.
.	.	32dd-\	.	.	.	.	.
.	.	32gg-\	.	.	.	.	.
*Xped	*	*	*	*	*	*	*
.	.	32bb-\JJJ	.	.	.	.	.
*ped	*	*	*	*	*	*	*
8FF/	.	32a-\LLL	.	.	4a-/	-rem-	.
.	.	32dd-\	.	.	.	.	.
.	.	32ff\	.	.	.	.	.
.	.	32aa-\JJJ	.	.	.	.	.
4f\ 4d-\ 4A-\	.	32ff\LLL	.	.	.	.	.
.	.	32aa-\	.	.	.	.	.
.	.	32ddd-\	.	.	.	.	.
.	.	32fff\JJJ	.	.	.	.	.
.	.	32dd-\LLL	.	.	8dd-\	-no!	.
.	.	32ff\	.	.	.	.	.
.	.	32aa-\	.	.	.	.	.
*Xped	*	*	*	*	*	*	*
.	.	32ddd-\JJJ	.	.	.	.	.
!!LO:LB:g=original
=61	=61	=61	=61	=61	=61	=61	=61
*	*	*	*	*	*	*	*^
*ped	*	*	*	*	*	*	*	*
!	!	!	!	!	!	!	!LO:DY:a	!
8AA-\L 8AAA-\	.	32cc\LLL	>	.	16cc/LL	a-	.	.
.	.	32gg-\	.	.	.	.	>	.
.	.	32aa-\	.	.	16e-/JJ	.	.	.
.	.	32ccc\JJJ	.	.	.	.	.	.
8g-\ 8c\ 8A-\	.	32b-\LLL	]	.	8.b-/	-le	.	.
.	.	32cc\	.	.	.	.	.	.
.	.	32ee-\	.	.	.	.	.	>
.	.	32bb-\JJJ	.	.	.	.	.	.
8g-\J 8c\ 8A-\	.	32b-\LLL	.	.	.	.	.	.
.	.	32cc\	.	.	.	.	.	.
.	.	32a-\	.	.	16a-/	da-	]	.
*Xped	*	*	*	*	*	*	*	*
.	.	32ee-\JJJ	.	.	.	.	.	.
*ped	*	*	*	*	*	*	*	*
8D-\L 8DD-\	.	32a-\LLL	.	.	8a-/	-rem-	.	.
.	.	32dd-\	.	.	.	.	.	.
.	.	32ff\	.	.	.	.	.	.
.	.	32aa-\JJJ	.	.	.	.	.	.
8d-\J 8A-\	.	32f\LLL	.	.	8d-/	-no!	.	.
.	.	32a-\	.	.	.	.	.	.
.	.	32dd-\	.	.	.	.	.	.
*Xped	*	*	*	*	*	*	*	*
.	.	32ff\JJJ	.	.	.	.	.	.
8r	.	32d-/LLL	.	.	8r	.	.	.
.	.	32f/	.	.	.	.	.	.
.	.	32a-/	.	.	.	.	.	.
.	.	32dd-/JJJ	.	.	.	.	.	.
*	*	*	*	*	*	*	*v	*v
=62	=62	=62	=62	=62	=62	=62	=62
*ped	*	*	*	*	*	*	*
4.G-/ 4.AA-/	.	32r	.	.	8e-/	Bo	.
.	.	(32c/LLL	.	.	.	.	.
.	.	32a-/	.	.	.	.	.
.	.	32e-/JJJ)	.	.	.	.	.
.	.	.	.	.	8qg-/	.	.
.	.	(32cc/LLL	.	.	8f/	i	.
.	.	32a-/	.	.	.	.	.
.	.	32e-/	.	.	.	.	.
.	.	32c/JJJ)	.	.	.	.	.
.	.	(32ee-/LLL	.	.	8e-/	Ha-	.
.	.	32cc/	.	.	.	.	.
.	.	32a-/	.	.	.	.	.
*Xped	*	*	*	*	*	*	*
.	.	32e-/JJJ)	.	.	.	.	.
*ped	*	*	*	*	*	*	*
4.F/ 4.AA-/	.	32r	.	.	4b-/	-li-	.
.	.	(32d-/LLL	.	.	.	.	.
.	.	32a-/	.	.	.	.	.
.	.	32f/JJJ)	.	.	.	.	.
.	.	(32dd-/LLL	.	.	.	.	.
.	.	32a-/	.	.	.	.	.
.	.	32f/	.	.	.	.	.
.	.	32d-/JJJ)	.	.	.	.	.
.	.	(32ff/LLL	.	.	8a-/	-na	.
.	.	32dd-/	.	.	.	.	.
.	.	32a-/	.	.	.	.	.
*Xped	*	*	*	*	*	*	*
.	.	32f/JJJ)	.	.	.	.	.
!!LO:LB:g=original
=63	=63	=63	=63	=63	=63	=63	=63
*ped	*	*	*	*	*	*	*
4.E-/ 4.AA-/	.	32r	.	.	8cc\	jak	.
.	.	(32c/LLL	.	.	.	.	.
.	.	32a-/	.	.	.	.	.
.	.	32g-/JJJ)	.	.	.	.	.
.	.	.	.	.	16qqdd-/LL	.	.
.	.	.	.	.	16qqcc/JJ	.	.
.	.	(32cc/LLL	.	.	8b-\	ró-	.
.	.	32a-/	.	.	.	.	.
.	.	32g-/	.	.	.	.	.
.	.	32c/JJJ)	.	.	.	.	.
.	.	(32ee-/LLL	.	.	8cc\	-ży	.
.	.	32a-/	.	.	.	.	.
.	.	32g-/	.	.	.	.	.
*Xped	*	*	*	*	*	*	*
.	.	32e-/JJJ)	.	.	.	.	.
4.D-/	.	32r	.	.	4ee-\	kwie-	.
.	.	(32g-/LLL	.	.	.	.	.
.	.	32cc/	.	.	.	.	.
.	.	32a-/JJJ)	.	.	.	.	.
.	.	(32gg-\LLL	.	.	.	.	.
.	.	32cc\	.	.	.	.	.
.	.	32a-\	.	.	.	.	.
.	.	32g-\JJJ)	.	.	.	.	.
.	.	(32ff\LLL	.	.	8dd-\	-cie	.
.	.	32dd-\	.	.	.	.	.
.	.	32a-\	.	.	.	.	.
.	.	32f\JJJ)	.	.	.	.	.
=64	=64	=64	=64	=64	=64	=64	=64
*^	*	*	*	*	*	*	*
*ped	*	*	*	*	*	*	*	*
16BB-/LL	4.BB-\	.	32r	.	.	16dd-\LL	Ta-	.
.	.	.	32f\LLL	.	.	.	.	.
16B-/JJ	.	.	32dd-\	.	.	16ff\JJ	.	.
.	.	.	32ff\JJJ	.	.	.	.	.
8c/L	.	.	32r	.	.	8ee-\	-ką	.
.	.	.	32f\LLL	.	.	.	.	.
.	.	.	32ff\ 32ee-\	.	.	.	.	.
.	.	.	32f\JJJ	.	.	.	.	.
8B-/J	.	.	32r	.	.	8dd-\	twa-	.
.	.	.	32f\LLL	.	.	.	.	.
.	.	.	32ff\ 32dd-\	.	.	.	.	.
*Xped	*	*	*	*	*	*	*	*
.	.	.	32f\JJJ	.	.	.	.	.
8ryy	8A-\L 8AA-\	.	32r	.	.	8cc\L	-rzy-	.
.	.	.	32f\LLL	.	.	.	.	.
.	.	.	32cc\	.	.	.	.	.
.	.	.	32ff\JJJ	.	.	.	.	.
.	.	.	.	.	.	8qee-/	.	.
4ryy	8B-\ 8BB-\	.	32r	.	.	8dd-\J	.	.
.	.	.	32f\LLL	.	.	.	.	.
.	.	.	32dd-\	.	.	.	.	.
.	.	.	32ff\JJJ	.	.	.	.	.
.	8A-\J 8AA-\	.	32r	.	.	8cc\	-czkę	.
.	.	.	32f\LLL	.	.	.	.	.
.	.	.	32cc\	.	.	.	.	.
.	.	.	32ff\JJJ	.	.	.	.	.
!!LO:LB:g=original
=65	=65	=65	=65	=65	=65	=65	=65	=65
16GGn/LL	8GGn\L	.	32r	.	.	16b-\LL	kwi-	.
.	.	.	32f\LLL	.	.	.	.	.
16Gn/JJ	.	.	32b-\	.	.	16dd-\JJ	.	.
.	.	.	32ff\JJJ	.	.	.	.	.
4C/	8C\	.	32r	.	.	8cc\	-tną-	.
.	.	.	32en/LLL	.	.	.	.	.
.	.	.	32een/ 32b-/	.	.	.	.	.
.	.	.	32e/JJJ	.	.	.	.	.
.	8CC\J	.	32r	.	.	8gn/	-cą	.
.	.	.	32c/LLL	.	.	.	.	.
.	.	.	32b-/ 32e/	.	.	.	.	.
.	.	.	32c/JJJ	.	.	.	.	.
!	!	!	!	!	!	!	!	!LO:DY:a
4.ryy	8C\L 8FF\	.	32r	.	.	8a-/L	mia-	>
.	.	.	32A-/LLL	.	.	.	.	.
.	.	.	32f/	.	.	.	.	.
.	.	.	32a-/JJJ	.	.	.	.	.
.	.	.	.	.	.	8qcc/	.	.
.	8E-X\ 8EE-X\	.	32r	.	.	8b-/J	.	.
.	.	.	32B-/LLL	>	.	.	.	.
.	.	.	32g-X/	.	.	.	.	.
.	.	.	32b-/JJJ	.	.	.	.	.
.	8AA-\J	.	32r	.	.	8g-X/	-ła	.
.	.	.	32c/LLL	.	.	.	.	.
.	.	.	32g-/	.	.	.	.	.
.	.	.	32cc/JJJ	.	.	.	.	.
=66	=66	=66	=66	=66	=66	=66	=66	=66
*ped	*	*	*	*	*	*	*	*
8D-/L 8DD-/	4.ryy	.	32r	.	.	8f/	Gdy	.
.	.	.	32d-/LLL	.	.	.	.	.
.	.	.	32dd-/ 32f/	.	.	.	.	.
.	.	.	32d-/JJJ	.	.	.	.	.
8G-/ 8E-/ 8D-/	.	.	32r	.	.	8g-/	Jaś	.
.	.	.	32d-/LLL	.	.	.	.	.
.	.	.	32dd-/ 32g-/ 32e-/	.	.	.	.	.
.	.	.	32d-/JJJ	.	.	.	.	.
!	!	!	!	!	!	!LO:TX:a:t=cre_scen_do:ext2=ud:problem:dynamics with extension lines	!	!LO:HP:a:t=cre_scen_do
8Gn/J 8En/ 8D-/	.	.	32r	.	.	8gn/	w nią	<
!	!	!	!LO:TX:b:t=cre_scen_do:ext2=ud:problem:dynamics with extension lines	!LO:HP:b:t=cre_scen_do	!	!	!	!
.	.	.	32d-/LLL	<	.	.	.	.
.	.	.	32dd-/ 32gn/ 32en/	.	.	.	.	.
*Xped	*	*	*	*	*	*	*	*
.	.	.	32d-/JJJ	.	.	.	.	.
4.A-/ 4.F/	8D-\L	.	32r	.	.	4a-/	pa-	.
.	.	.	32d-/LLL	.	.	.	.	.
.	.	.	32f/	.	.	.	.	.
.	.	.	32a-/JJJ	.	.	.	.	.
.	8C\	.	32dd-/LLL	.	.	.	.	.
.	.	.	32a-/	.	.	.	.	.
.	.	.	32f/	.	.	.	.	.
.	.	.	32d-/JJJ	[	.	.	.	[
.	8C-X\J	.	32dd-/LLL	.	.	8a-/	-trzał,	.
.	.	.	32a-/	.	.	.	.	.
.	.	.	32f/	.	.	.	.	.
.	.	.	32d-/JJJ	.	.	.	.	.
*v	*v	*	*	*	*	*	*	*
!!LO:PB:g=original
=67	=67	=67	=67	=67	=67	=67	=67
!	!	!	!	!	!	!	!LO:DY:a
8B-\L 8F\ 8BB-\	.	32r	.	.	8b-\	drżał	<
.	.	32dn/LLL	<	.	.	.	.
.	.	32f/	.	.	.	.	.
.	.	32b-/JJJ	.	.	.	.	.
8F\ 8C\ 8AAn\	.	32r	.	.	8cc\	jak-	.
.	.	32c/LLL	.	.	.	.	.
.	.	32f/	.	.	.	.	.
!	!	!LO:TX:i:b:t=poco ritenuto	!	!	!	!	!
.	.	32cc/JJJ	.	.	.	.	.
!	!	!	!	!	!LO:TX:i:a:t=poco riten.	!	!
8F\J 8BB-\ 8AA-X\	.	32r	[	.	8ddn\	-by	[
.	.	32f/LLL	.	.	.	.	.
.	.	32b-/	.	.	.	.	.
.	.	32ddn/JJJ	.	.	.	.	.
*ped	*	*	*	*	*	*	*
8E-\L 8BB-\ 8GG-X\	.	32r	.	.	(4ff\	dzie-	.
.	.	32ff\LLL	.	.	.	.	.
.	.	32b-\	.	.	.	.	.
.	.	32g-\JJJ	.	.	.	.	.
8e-\ 8B-\ 8G-\	.	32r	.	.	.	.	.
.	.	32fff\LLL	.	.	.	.	.
.	.	32bb-\	.	.	.	.	.
.	.	32gg-\JJJ	.	.	.	.	.
8e-\J 8B-\ 8G-\	.	32r	.	.	8ee-\)	-cię	.
.	.	32ee-\LLL	.	.	.	.	.
.	.	32b-\	.	.	.	.	.
*Xped	*	*	*	*	*	*	*
.	.	32g-\JJJ	.	.	.	.	.
=68	=68	=68	=68	=68	=68	=68	=68
*	*	*	*	*	*	*	*^
*ped	*	*	*	*	*	*	*	*
8GGn\L	.	32dd-X/LLL	.	.	8dd-X\	O-	.	.
.	.	32en/	.	.	.	.	.	.
.	.	32b-/	.	.	.	.	.	.
.	.	32dd-/JJJ	.	.	.	.	.	.
!	!	!	!	!	!	!	!LO:DY:a	!
8en\ 8c\ 8Gn\	.	32cc\LLL	.	.	8cc'\	-na	>	.
.	.	32een\	>	.	.	.	.	>
.	.	32ggn\	.	.	.	.	.	.
.	.	32ccc\JJJ	.	.	.	.	.	.
8e\J 8B-\ 8G\	.	32dd-\LLL	>	.	8b-'\	się	.	.
.	.	32ee\	.	.	.	.	.	.
.	.	32gg\	.	.	.	.	.	.
*Xped	*	*	*	*	*	*	*	*
.	.	32ddd-\JJJ	.	.	.	.	.	.
*ped	*	*	*	*	*	*	*	*
8AA-\L	.	(32ff\LLL	.	.	(4a-/	śmia-	]	.
.	.	32fff\	.	.	.	.	.	.
.	.	32eee-X\	.	.	.	.	.	.
.	.	32ddd-\JJJ)	.	.	.	.	.	.
8f\J 8d-\ 8A-\	.	(32aa-\LLL	]	.	.	.	.	.
.	.	32ff\	.	.	.	.	.	.
.	.	32ee-X\	.	.	.	.	.	.
.	.	32dd-\JJJ)	.	.	.	.	.	.
8r	.	(32a-/LLL	.	.	8dd-\)	-ła	.	.
.	.	32f/	.	.	.	.	.	.
.	.	32e/	.	.	.	.	.	.
*Xped	*	*	*	*	*	*	*	*
.	.	32d-/JJJ)	.	.	.	.	.	.
*	*	*	*	*	*	*	*v	*v
!!LO:LB:g=original
=69	=69	=69	=69	=69	=69	=69	=69
!	!	!	!	!	!	!	!LO:DY:rj
8AA-/L	.	32r	p	.	(8ee-'\	O-	p
.	.	(32A-/LLL	.	.	.	.	.
.	.	32c/	.	.	.	.	.
.	.	32g-/JJJ)	.	.	.	.	.
!	!	!	!	!	!LO:TX:i:a:t=rit.	!	!
8AA-/	.	32r	.	.	8b-'\	-na	.
!	!	!LO:TX:i:b:t=rit.	!	!	!	!	!
.	.	(32A-/LLL	.	.	.	.	.
.	.	32d-/	.	.	.	.	.
.	.	32g-/JJJ)	.	.	.	.	.
8AA-/J	.	32r	.	.	8cc'\)	się	.
.	.	(32A-/LLL	.	.	.	.	.
.	.	32e-/	.	.	.	.	.
.	.	32g-/JJJ)	.	.	.	.	.
*	*	*ped	*	*below	*	*	*
(32DD-\LLL	.	16r	.	.	8ee-\	śmia-	.
32D-\JJJ)	.	.	.	.	.	.	.
16r	.	(<32F</LLL	.	.	.	.	.
.	.	32A-</JJJ)	.	.	.	.	.
8r	.	(32d-/LLL	.	1	8dd-\	-ła.	.
.	.	32f/	.	.	.	.	.
.	.	32a-/	.	.	.	.	.
.	.	32dd-/JJJ)	.	.	.	.	.
*	*	*	*	*above	*	*	*
8r	.	(32ff\LLL	.	1	8r	.	.
.	.	32aa-\	.	.	.	.	.
.	.	32ddd-\	.	.	.	.	.
*	*	*Xped	*	*	*	*	*
.	.	32fff\JJJ)	.	.	.	.	.
=70	=70	=70	=70	=70	=70	=70	=70
*	*	*ped	*	*	*	*	*
(32DD-\LLL	.	16r	.	.	2.r	.	.
32D-\JJJ)	.	.	.	.	.	.	.
16r	.	(<32F-X</LLL	.	.	.	.	.
.	.	32A-</JJJ)	.	.	.	.	.
8r	.	(<32d-</LLL	.	.	.	.	.
.	.	32f-X/	.	.	.	.	.
.	.	32a-/	.	.	.	.	.
.	.	32dd-/JJJ)	.	.	.	.	.
8r	.	(32ff-X\LLL	.	.	.	.	.
.	.	32aa-\	.	.	.	.	.
*	*	*Xped	*	*	*	*	*
.	.	32ddd-\	.	.	.	.	.
.	.	32fff-X\JJJ)	.	.	.	.	.
*	*	*ped	*	*	*	*	*
(32CC\LLL	.	16r	.	.	.	.	.
32C\JJJ)	.	.	.	.	.	.	.
16r	.	(<32En</LLL	.	.	.	.	.
.	.	32An</JJJ)	.	.	.	.	.
8r	.	(32c/LLL	.	.	.	.	.
.	.	32en/	.	.	.	.	.
.	.	32an/	.	.	.	.	.
.	.	32cc/JJJ)	.	.	.	.	.
8r	.	(32een\LLL	.	.	.	.	.
.	.	32aan\	.	.	.	.	.
.	.	32ccc\	.	.	.	.	.
*	*	*Xped	*	*	*	*	*
.	.	32eeen\JJJ)	.	.	.	.	.
!!LO:LB:g=original
=71	=71	=71	=71	=71	=71	=71	=71
*ped	*	*	*	*	*	*	*
!	!	!LO:N:acc=n#	!	!	!	!	!
8BBBn\L	.	(32ddd#X\LLL	.	3	2.r;	.	.
.	.	32eeen\	.	1	.	.	.
!	!	!LO:N:acc=n#	!	!	!	!	!
.	.	32ggg#X\	.	4	.	.	.
.	.	32fff#X\JJJ	.	3	.	.	.
8d#X\J 8Bn\ 8An\ 8F#X\	.	32ddd#\LLL	.	2	.	.	.
.	.	32bbn\	.	1	.	.	.
.	.	32aan\	>	4	.	.	.
.	.	32ff#X\JJJ	.	.	.	.	.
!	!	!LO:N:acc=n#	!	!	!	!	!
8r	.	32dd#X/LLL	.	.	.	.	.
.	.	32bn/	.	.	.	.	.
*	*	*	*	*below	*	*	*
.	.	32an/	.	4	.	.	.
.	.	32f#X/JJJ)	]	.	.	.	.
16r	.	16d#X/LL	.	.	.	.	.
!	!	!LO:TX:i:b:t=rall.	!	!	!	!	!
!	!	!LO:SIC:v:n=4:s=16Bn/	!	!	!	!	!
16An\ 16BBn\	.	16b/JJ 16f#/ 16d#/ 16B-/	.	.	.	.	.
!LO:N:n=1:acc=n#	!	!LO:N:n=2:acc=n#	!	!	!	!	!
8G#X\L 8BB\	.	8b/L 8e#X/ 8c##X/ 8Bny/	.	.	.	.	.
8A\J 8BB;\:	.	8b/J 8f#/ 8d#/ 8B;/:	.	.	.	.	.
=72||	=72||	=72||	=72||	=72||	=72||	=72||	=72||
!!!OMD:Andantino.
*k[f#c#g#d#]	*	*k[f#c#g#d#]	*	*	*k[f#c#g#d#]	*	*
!	!	!	!	!	!	!	!LO:DY:b:rj
4.E/ 4.EE/	.	(8g#/L 8e/ 8B/	pp	.	8b\	I	pp
.	.	8g#/ 8e/ 8B/	.	.	8cc#\	już	.
.	.	8g#/J 8e/ 8B/)	.	.	8dd#\	nie	.
4.GG#/ 4.GGG#/	.	(8g#/L 8e/ 8B/	.	.	(4ee\	plą-	.
.	.	8g#/ 8e/ 8B/	.	.	.	.	.
.	.	8g#/J 8e/ 8B/)	.	.	8g#/)	-sał	.
!!LO:LB:g=original
=73	=73	=73	=73	=73	=73	=73	=73
4.FF#/ 4.FFF#/	.	(8a/L 8e/ 8c#/	.	.	8a/	przy	.
.	.	8a/ 8e/ 8c#/	.	.	8b\	swej	.
.	.	8a/J 8e/ 8c#/)	.	.	8cc#\	pio-	.
4.BB/ 4.BBB/	.	(8a/L 8d#/ 8B/	.	.	(4dd#\	-sen-	.
.	.	8a/ 8d#/ 8B/	.	.	.	.	.
.	.	8a/J 8d#/ 8B/)	.	.	8f#/)	-ce	.
=74	=74	=74	=74	=74	=74	=74	=74
*	*	*^	*	*	*	*	*
*	*	*	*^	*	*	*	*	*
8E/L 8EE/	.	(8g#/L 8e/	4.ryy	4.ryy	.	.	8g#/	Już	.
8E/ 8EE/	.	8b/ 8f#/ 8d#/	.	.	.	.	8b/	jej	.
8E/J 8EE/	.	8e/J 8c#/)	.	.	.	.	8e/	nie	.
4.E/ 4.EE/	.	4a/	4cn\	8e/L	.	.	4a/	stro-	.
.	.	.	.	8d#X/J	.	.	.	.	.
.	.	8g#/	8e\ 8B\	8ryy	.	.	8g#/	-ił	.
*	*	*v	*v	*v	*	*	*	*	*
=75	=75	=75	=75	=75	=75	=75	=75
4.F#/ 4.FF#/	.	8r	.	.	16f#/LL	w kra-	.
.	.	.	.	.	16a#X/JJ	.	.
.	.	8f#/L 8A#X/	.	.	8dd#\	-sną	.
.	.	8e/J 8A#/	.	.	16cc#\LL	ka-	.
.	.	.	.	.	16dd#\JJ	.	.
4.BB/	.	8r	.	.	(4cc#\	-li-	.
.	.	(8e/L 8A#/	.	.	.	.	.
.	.	8d#/J 8B/)	.	.	8b\)	-nę	.
!!LO:PB:g=original
=76	=76	=76	=76	=76	=76	=76	=76
!	!	!	!	!	!	!	!LO:DY:a
4.AAn/	.	8r	.	.	8b\	I	<
.	.	.	.	.	8qdd#/	.	.
.	.	8f#/L 8d#/ 8B/	<	.	8cc#\	przy	.
.	.	8f#/J 8d#/ 8B/	.	.	8b\	ro-	[
4.GG#/	.	8r	[	.	(4b\	-bo-	.
.	.	8g#/L 8e/ 8B/	.	.	.	.	.
.	.	8g#/J 8e/ 8B/	.	.	8ee\)	-cie	.
=77	=77	=77	=77	=77	=77	=77	=77
4.G#/ 4.GG#/	.	8r	.	.	8ee\	o-	.
!	!	!LO:TX:i:b:t=rit.	!	!	!LO:TX:i:a:t=rit.	!	!LO:DY:a
.	.	8g#/L 8B#X/	>	.	8.ee\	-pu-	>
.	.	8f#/J 8B#/	.	.	.	.	.
.	.	.	.	.	16dd#\	-szczał	.
4.C#/	.	8r	]	.	(4dd#\	rę-	]
.	.	(8f#/L 8B#/ 8A/	.	.	.	.	.
.	.	8e/J 8c#/ 8G#/)	.	.	8cc#\)	-ce.	.
=78	=78	=78	=78	=78	=78	=78	=78
*^	*	*^	*	*	*	*	*
!	!	!	!LO:TX:i:a:t=zwolnić.	!	!LO:DY:rj:b=2	!	!	!	!
8F#/L	[4.GG#\	.	(8a/L	4.B#X\	pp	.	2.r	.	.
8E/	.	.	8g#/	.	.	.	.	.	.
8D#/J	.	.	8f#/J)	.	.	.	.	.	.
4D#/	8GG#\L]	.	(4f#/	(4B#\	.	.	.	.	.
.	8GG#\	.	.	.	.	.	.	.	.
8C#/	8C#\J	.	8e/)	8c#\)	.	.	.	.	.
*v	*v	*	*	*	*	*	*	*	*
!!LO:LB:g=original
=79	=79	=79	=79	=79	=79	=79	=79	=79
!!!OMD:Lento.
!	!	!	!	!	!	!LO:TX:i:a:t=dolcissimo	!	!
!	!	!	!	!	!	!	!	!LO:DY:a
4A\ 4AA\	.	4g#/ 4d#/ 4Bn/	4.ryy	<	.	8f#/	Ko-	<
.	.	.	.	.	.	8f#/	-chał	.
8G#/ 8GG#/	.	8g#/ 8e/ 8B/	.	[	.	8g#/	dziew-	[
!	!	!	!	!	!	!	!	!LO:DY:a
4.F#/ 4.FF#/	.	4b/	4.e\ 4.c#\	>	.	(4b/	-czy-	>
.	.	8a/	.	.	.	8a/)	-nę.	]]
=80	=80	=80	=80	=80	=80	=80	=80	=80
.	.	16qqa/LL	.	]	.	.	.	.
.	.	16qqb/JJ	.	.	.	.	.	.
*^	*	*	*	*	*	*	*	*
4c#/ 4A/	8.F#\L	.	(16a\LL	4.ryy	.	.	2.r	.	.
.	.	.	16g#\	.	.	.	.	.	.
.	.	.	16a\	.	.	.	.	.	.
.	16E\L	.	16cc#\	.	.	.	.	.	.
8A/ 8F#/	16D#\	.	16ff#\	.	.	.	.	.	.
.	16C#\JJ	.	16ee\JJ)	.	.	.	.	.	.
*	*ped	*	*	*	*	*	*	*	*
8ryy	4.A\ 4.F#\ 4.BB\	.	16ee/LL	8a\L 8f#\	<	.	.	.	.
.	.	.	16dd#/	.	.	.	.	.	.
4ryy	.	.	16gg#/	8dd#\ 8a\	.	.	.	.	.
.	.	.	16ff#/	.	.	.	.	.	.
.	.	.	16ccc#/	8ff#\J 8dd#\	.	.	.	.	.
*	*Xped	*	*	*	*	*	*	*	*
.	.	.	16bb/JJ	.	[	.	.	.	.
*v	*v	*	*	*	*	*	*	*	*
*	*	*v	*v	*	*	*	*	*
=81	=81	=81	=81	=81	=81	=81	=81
*ped	*	*	*	*	*	*	*
8a\ 8f#\ 8B\	.	(16ddd#\LL 16aa\ 16ff#\	.	.	2.r	.	.
.	.	16ccc#\	>	.	.	.	.
8r	.	16bb\	.	.	.	.	.
.	.	16aa\	.	.	.	.	.
8r	.	16ff#\	.	.	.	.	.
*Xped	*	*	*	*	*	*	*
!	!	!LO:TX:i:b:t=ritard.	!	!	!	!	!
.	.	16dd#\JJ)	]	.	.	.	.
!	!	!LO:TUP:b	!	!	!	!	!
4r	.	(24b/LL	.	.	.	.	.
.	.	24a/	.	.	.	.	.
.	.	24f#/JJ	.	.	.	.	.
!	!	!LO:TUP:b	!	!	!	!	!
.	.	24d#/LL	.	.	.	.	.
.	.	24B/	.	.	.	.	.
.	.	24c#'/JJ	.	.	.	.	.
*	*	*Xtuplet	*	*	*	*	*
8r	.	24d#'/LL	.	.	.	.	.
.	.	24e'/	.	.	.	.	.
.	.	24e#X'/JJ)	.	.	.	.	.
!!LO:LB:g=original
=82	=82	=82	=82	=82	=82	=82	=82
*^	*	*^	*	*	*	*	*
4.BB/	4.ryy	.	8f#/L 8d#/	16A\LL	.	.	8f#/	Raz	.
.	.	.	.	16B\	.	.	.	.	.
.	.	.	8e#X/ 8c##/	16G#\	.	.	8e#X/	mó-	.
.	.	.	.	16B\	.	.	.	.	.
.	.	.	8f#/J 8d#/	16A\	.	.	8f#/	-wił	.
.	.	.	.	16B\JJ	.	.	.	.	.
[4E/	4.EE\	.	4f##X/ 4en/	16A#X\LL	.	.	4f##X/	że	.
!	!	!	!	!LO:N:acc=n#	!	!	!	!	!
.	.	.	.	16c#X\	.	.	.	.	.
.	.	.	.	16A#\	.	.	.	.	.
.	.	.	.	16c#\J	.	.	.	.	.
16E/LL]	.	.	8g#/ 8e/	8B\J	.	.	8g#/	jest	.
16Dn/JJ	.	1	.	.	.	.	.	.	.
*	*	*	*v	*v	*	*	*	*	*
=83	=83	=83	=83	=83	=83	=83	=83	=83
16C#/LL	4.EE\	.	8an/L 8e/ 8An/	.	.	8a/	dla	.
16E/	.	.	.	.	.	.	.	.
16BB/	.	.	8g#/ 8e/ 8B/	.	.	8b\	niej	.
16E/	.	.	.	.	.	.	.	.
16AA/	.	.	8a/J 8e/ 8c#/	.	.	8cc#\	go-	.
16E/JJ	.	.	.	.	.	.	.	.
[4E/ [4EE/	4.ryy	.	16r	.	.	4a#X/	-to-	.
.	.	.	16gn/LL 16e/ 16c#/	.	.	.	.	.
.	.	.	16g/ 16e/ 16c#/	.	.	.	.	.
.	.	.	16g/ 16e/ 16c#/	.	.	.	.	.
16E/]LL 16EE/]	.	.	16g#X/ 16e/ 16B/	.	.	8b\	-wy	.
16D#/JJ 16DD#/	.	.	16g#/JJ 16e/ 16B/	.	.	.	.	.
*v	*v	*	*	*	*	*	*	*
!!LO:LB:g=original
=84	=84	=84	=84	=84	=84	=84	=84
!	!	!	!	!	!	!	!LO:DY:a
16C#/LL 16CC#/	.	16g#/LL 16e/ 16c#/ 16G#/	<	.	8ee\	i	<
16C#/ 16CC#/	.	16g#/ 16e/ 16c#/ 16G#/	.	.	.	.	.
16C#/ 16CC#/	.	16g#/ 16e/ 16c#/ 16G#/	.	.	8ee\	w o-	.
16C#/ 16CC#/	.	16g#/ 16e/ 16c#/ 16G#/	.	.	.	.	.
16C#/ 16CC#/	.	16g#/ 16e#X/ 16c#/ 16B/	.	.	8ee#X\	-gień	[
16C#/JJ 16CC#/	.	16g#/JJ 16e#/ 16c#/ 16B/	[	.	.	.	.
*ped	*	*	*	*	*	*	*
16FF#/LL 16FFF#/	.	16a#X/LL 16f#/ 16c#/ 16A#X/	f	.	(4ff#^\	wsko-	.
16FF#/ 16FFF#/	.	16a#/ 16f#/ 16c#/ 16A#/	.	.	.	.	.
16FF#/ 16FFF#/	.	16a#/ 16f#/ 16en/ 16c#/ 16A#/	.	.	.	.	.
16FF#/ 16FFF#/	.	16a#/ 16f#/ 16e/ 16c#/ 16A#/	.	.	.	.	.
16FF#/ 16FFF#/	.	16a#/ 16f#/ 16e/ 16c#/ 16A#/	.	.	8cc#\)	-czyć	.
16FF#/JJ 16FFF#/	.	16a#/JJ 16f#/ 16e/ 16c#/ 16A#/	.	.	.	.	.
*Xped	*	*	*	*	*	*	*
.	.	.	.	.	.	.	.
=85	=85	=85	=85	=85	=85	=85	=85
4.BB/ 4.BBB/	.	16r	.	.	8dd#\	jeś-	.
.	.	16f#/LL 16d#/ 16An/	.	.	.	.	.
.	.	16f#/ 16d#/ 16A/	.	.	8.cc#\	-li-	.
.	.	16f#/ 16d#/ 16A/	.	.	.	.	.
.	.	16f#/ 16d#/ 16A/	.	.	.	.	.
.	.	16f#/JJ 16d#/ 16A/	.	.	16f#/	-by	.
!	!	!	!	!	!LO:SIC:v:l:s=chcia-	!	!LO:DY:a
4E/ 4EE/	.	16r	.	.	4cc#\	chia-	>
.	.	16gn/LL 16e/ 16A#X/	>	.	.	.	.
.	.	16a#X/ 16g/ 16e/	.	.	.	.	.
.	.	16a#/ 16g/ 16e/	.	.	.	.	.
8r	.	16b/ 16g/ 16e/	.	.	8b\	-ła	]
.	.	16ee/JJ 16b/ 16g/	]	.	.	.	.
!!LO:PB:g=original
=86	=86	=86	=86	=86	=86	=86	=86
!	!	!	!LO:DY:rj	!	!	!	!LO:DY:rj
8f#\L	.	16ddn/LL 16b/ 16g#/	p	.	8ddn\	Wte-	p
.	.	16dd/ 16b/ 16g#/	.	.	.	.	.
16e#X\L	.	16cc#/ 16b/ 16g#/	.	.	8cc#\	-dy	.
(32c#\L	.	16cc#/ 16g#/ 16e#X/	.	.	.	.	.
32B\J	.	.	.	.	.	.	.
16A\	.	16cc#/ 16f#/	.	.	8cc#\	z ser-	.
16G#\JJ)	.	16cc#/JJ 16b/ 16e#/	.	.	.	.	.
8.F#\L	.	16cc#/LL 16a/ 16f#/	<	.	4cc#\	-decz-	.
.	.	16cc#/ 16a/ 16f#/	.	.	.	.	.
.	.	16cc#/ 16a/ 16f#/	.	.	.	.	.
16A\L	.	16cc#/ 16a/ 16f#/	.	.	.	.	.
16c#\	.	16cc#/ 16a/ 16f#/	[	.	8cc#\	-nej	.
16f#\JJ	.	16cc#/JJ 16a/	.	.	.	.	.
=87	=87	=87	=87	=87	=87	=87	=87
8e\L	.	16ccn/LL 16a/ 16f#/	p	.	8ccn\	ko-	.
.	.	16cc/ 16a/ 16f#/	.	.	.	.	.
16d#\L	.	16b/ 16a/ 16f#/	.	.	8b\	-chan-	.
(32B\L	.	16b/ 16f#/ 16d#/	.	.	.	.	.
32A\J	.	.	.	.	.	.	.
16G#\	.	16b/ 16e/	.	.	8b\	-ka	.
16F#\JJ)	.	16b/JJ 16a/ 16d#/	.	.	.	.	.
!	!	!	!	!	!	!	!LO:DY:a
4E\	.	16b/LL 16g#/ 16e/	.	.	4b\	mo-	<
.	.	16b/ 16g#/ 16e/	<	.	.	.	.
.	.	16b/ 16g#/ 16e/	.	.	.	.	.
.	.	16b/ 16g#/ 16e/	.	.	.	.	.
8D#\	.	16b/ 16f#/	.	.	16cc#X\LL	-wy	.
.	.	16b/JJ 16f#/	[	.	16dd#\JJ	.	[
!!LO:LB:g=original
=88	=88	=88	=88	=88	=88	=88	=88
(8C#/L	.	16ee/LL	.	.	(8ee'\	O-	.
.	.	16g#/ 16e/	.	.	.	.	.
8BB/	.	16dd#/	.	.	8dd#'\	-na	.
.	.	16g#/ 16e/	.	.	.	.	.
8AA/J)	.	16cc#/	.	.	8cc#'\)	się	.
.	.	16a/JJ 16e/	.	.	.	.	.
!	!	!	!	!	!	!	!LO:DY:a
8GG#\L	.	16b\LL 16e\	.	.	(4b\	śmia-	>
.	.	16bb\ 16gg#\	.	.	.	.	.
8B\J 8E\	.	16gg#\ 16ee\	.	.	.	.	.
.	.	16ee\ 16b\	.	.	.	.	.
8r	.	16b\ 16g#\	.	.	8g#/)	-ła	]
.	.	16g#\JJ 16e\	.	.	.	.	.
=89	=89	=89	=89	=89	=89	=89	=89
.	.	.	.	.	16qqa/LL	.	.
.	.	.	.	.	16qqb/JJ	.	.
4.BB/	.	8r	.	.	16a/LL	O-	.
.	.	.	.	.	16g#/JJ	.	.
.	.	8f#/L 8e/ 8A/	.	.	8f#/	-na	.
.	.	8f#/J 8d#/ 8A/	.	.	16cc#\LL	się	.
.	.	.	.	.	16b\JJ	.	.
(8.E\L	.	16r	>	.	(8b\	śmia-	.
!	!	!LO:TX:i:b:t=ritard.	!	!	!	!	!
.	.	(16e/LL 16G#/	.	.	.	.	.
.	.	16g#/ 16B/)	.	.	8e/)	-ła!	.
16D#\L	.	16g#/ 16f#/ 16B#X/	.	.	.	.	.
16GG#\	.	16a/ 16f#/ 16B#/	.	.	8r;	.	.
16G#;\JJ)	.	16g#/JJ 16f#/ 16B#;/	]]	.	.	.	.
!!LO:LB:g=original
=90	=90	=90	=90	=90	=90	=90	=90
*^	*	*^	*	*	*	*	*
!	!	!	!	!	!	!	!LO:TX:i:a:t=doloroso	!	!LO:DY:rj
8rA	4rAA	.	(8g#/L	4.ryy	p	.	8g#/	Więc	p
(<8E/L	.	.	8c#/	.	.	.	8c#/	chło-	.
8D#/J)	8r	.	(8B#X/J)	.	.	.	8B#X/	-pak	.
4F#/	8r	.	(4d#/)	4B#\	.	.	(4d#/	gło-	.
.	(>8GG#\L	.	.	.	.	.	.	.	.
8E/	8C#\J)	.	8c#/)	8c#\	.	.	8c#/)	-wę	.
=91	=91	=91	=91	=91	=91	=91	=91	=91	=91
8rA	4rGG	.	(8g#/L	4.ryy	.	.	8g#/	skrył	.
(<8E/L	.	.	8c#/	.	.	.	8c#/	w rę-	.
8D#/J)	8r	.	(8B#X/J)	.	.	.	8B#X/	-ce	.
4F#/	8r	.	(4d#/)	4B#\	.	.	(4d#/	o-	.
.	(>8GG#\L	.	.	.	.	.	.	.	.
8E/	8C#\J)	.	8c#/)	8c#\	.	.	8c#/)	-bie	.
=92	=92	=92	=92	=92	=92	=92	=92	=92	=92
!	!	!	!	!	!	!	!	!	!LO:DY:a
8G#\L 8C#\	4.ryy	.	8g#/L 8e/	4.ryy	<	.	8g#/	J	<
8G#\ 8C#\	.	.	8cc#/ 8e/	.	.	.	8cc#\	rze-	.
8G#\J 8C#\	.	.	8ee/J 8e/	.	[[	.	8ee\	-wnie,	.
!	!	!	!	!	!LO:DY:rj	!	!	!	!
4.A/	4.C#\	.	(4dd#/	4.e\	sf	.	(4dd#\	rze-	[
.	.	.	8cc#/)	.	.	.	8cc#\)	-wnie,	.
!!LO:LB:g=original
=93	=93	=93	=93	=93	=93	=93	=93	=93	=93
(4A/	8D#\	.	(16b/LL	8f#\	>	.	16b\LL	za-	.
.	.	.	16b#X/J	.	.	.	16b#X\JJ	.	.
.	4BB\	.	8cc#/	4d#\	.	.	(8cc#\	-pła-	.
8F#/)	.	.	8a/J)	.	]	.	8a/)	-kał	.
4.ryy	4.E\	.	8r	4.ryy	.	.	4a/	so-	.
.	.	.	(8a/L 8d#/ 8cn/	.	.	.	.	.	.
.	.	.	8g#/J 8e/ 8Bn/)	.	.	.	8g#/	-bie	.
*v	*v	*	*	*	*	*	*	*	*
=94	=94	=94	=94	=94	=94	=94	=94	=94
8r	.	4.g#/ 4.d#/ 4.B#X/	4.ryy	.	.	8g#/	A	.
(8GG#/L	.	.	.	.	.	8g#/	po-	.
8G#/J)	.	.	.	.	.	8g#/	-tem	.
8r	.	(4bn/	4.e\ 4.c#\	.	.	(4bn/	po-	.
(8GG#/L	.	.	.	.	.	.	.	.
8G#/J)	.	8a/)	.	.	.	8a/)	-bladł,	.
=95	=95	=95	=95	=95	=95	=95	=95	=95
8r	.	4.b#X/ 4.f#/ 4.d#/	4.ryy	.	.	8b#X\	zga-	.
(8GG#/L	.	.	.	.	.	8b#\	-sło	.
8G#/J)	.	.	.	.	.	8b#\	mu	.
8r	.	(4dd#/	4.g#\ 4.e\	.	.	(4dd#\	o-	.
(8GG#/L	.	.	.	.	.	.	.	.
8G#/J)	.	8cc#/)	.	.	.	8cc#\)	-ko	.
!!LO:PB:g=original
=96	=96	=96	=96	=96	=96	=96	=96	=96
*clefF4	*	*	*	*	*	*	*	*
*^	*	*	*	*	*	*	*	*
*	*	*	*	*	*	*	*	*	*^
*	*	*	*	*	*^	*	*	*	*	*
!	!	!	!	!	!	!	!	!LO:TX:i:a:t=poco a poco ritard.	!	!	!
(8c#/L	4.A#X\ 4.G#\	.	(8ee/L	4.f##X\	.	.	.	(8ee\	Cier-	.	.
8d#/	.	.	8dd#/	.	.	.	.	8dd#\	-piał	.	.
8e/J)	.	.	8cc#/J)	.	.	.	.	8cc#\)	głę-	>	.
4.ryy	4.d#\ 4.B#X\ 4.G#\	.	4.dd#/	4.g#\	.	>	.	4dd#\	-bo-	.	.
.	.	.	.	.	.	.	.	8g#/	-ko	.	.
*v	*v	*	*	*	*	*	*	*	*	*	*
*	*	*v	*v	*	*	*	*	*	*	*
=97	=97	=97	=97	=97	=97	=97	=97	=97	=97
!	!	!	!	!	!	!	!	!LO:DY:a	!LO:DY:rj
[4.G#/ [4.GG#/	.	4.an/ 4.e/ 4.c#/	p	.	.	(8a/	Cier-	.	p
.	.	.	.	.	.	8e/)	-piał	.	.
.	.	.	.	.	.	8f#/	głę-	]	.
16G#\]LL 16GG#\]	.	16g#/LL 16d#/ 16B#X/	.	]	.	8g#/	-bo-	.	.
(16Gn\	.	(16gn/	.	.	.	.	.	.	.
16F#\	.	16f#/	.	.	.	8g#/	-ko!	.	.
16D#\	.	16d#/	.	.	.	.	.	.	.
16BB#X\	.	16B#/	.	.	.	8r	.	.	.
[<16GG#X\JJ)	.	16G#X/JJ)	.	.	.	.	.	.	.
*	*	*	*v	*v	*	*	*	*	*
*	*	*	*	*	*	*	*v	*v
=98	=98	=98	=98	=98	=98	=98	=98
4.GG#\_ [4.GGG#\	.	8A</L 8E</ 8C#</	pp	.	2.r	.	.
.	.	8E</ 8C#</	.	.	.	.	.
!	!	!LO:TX:i:a:t=calando	!	!	!	!	!
.	.	8F#</J 8D#</ 8C#</	.	.	.	.	.
16GG#\] 16GGG#\]	.	16G#</LL 16F#</ 16BB#X</	.	.	.	.	.
16r	.	(<16F##X</	.	.	.	.	.
!	!	!	!LO:HP:a	!	!	!	!
8r	.	16G#</	<	.	.	.	.
.	.	16B#X</	.	.	.	.	.
8r	.	16d#/	.	.	.	.	.
.	.	16f##X/JJ)	[	.	.	.	.
=99	=99	=99	=99	=99	=99	=99	=99
*^	*	*^	*	*	*	*	*
!	!	!	!	!	!LO:HP:a	!	!	!	!
8r	8ryy	.	[4.g#/	8r	>	.	2.r;	.	.
8B#X/L	[4G#\	.	.	8d#\L	.	.	.	.	.
8c#/J	.	.	.	8e#X\J	.	.	.	.	.
4.d#/	4.G#;\]	.	4.g#;/]	4.f#\	]	.	.	.	.
*v	*v	*	*	*	*	*	*	*	*
*	*	*v	*v	*	*	*	*	*
!!LO:LB:g=original
=100||	=100||	=100||	=100||	=100||	=100||	=100||	=100||
*k[b-e-a-d-g-]	*	*k[b-e-a-d-g-]	*	*	*k[b-e-a-d-g-]	*	*
*	*	*^	*	*	*	*	*
!	!	!LO:TX:i:b:t=molto legato	!	!LO:DY:rj	!	!LO:TX:i:a:t=Spokojnie	!	!LO:DY:rj
4D-/ 4DD-/	.	4f/ 4d-/	4.A-\	p	.	8f/	J	p
.	.	.	.	.	.	8a-/	wię-	.
8AA-/	.	8e-/ 8c/	.	.	.	8e-/	-dnął	.
4D-/ 4DD-/	.	4f/ 4d-/	4.A-\	.	.	4f/	Ja-	.
8AA-/	.	8e-/ 8c/	.	.	.	8e-/	-sio,	.
=101	=101	=101	=101	=101	=101	=101	=101	=101
4D-/ 4DD-/	.	4f/ 4d-/	4.A-\	.	.	8f/	jak	.
.	.	.	.	.	.	8a-/	traw-	.
8AA-/	.	8e-/ 8c/	.	.	.	8e-/	-ka	.
4D-/ 4DD-/	.	4f/ 4d-/	4.A-\	.	.	4f/	w su-	.
8AA-/	.	8e-/ 8c/	.	.	.	8e-/	-szę	.
=102	=102	=102	=102	=102	=102	=102	=102	=102
8D-/L 8FF/	.	8d-/L	4.A-\	.	.	8d-/	Jak	.
8C/ 8EE-/	.	8e-/	.	.	.	8e-/	kwiat	.
8D-/J 8DD-/	.	8f/J 8d-/	.	.	.	8f/	ści-	.
4C/ 4CC/	.	4g-/ 4e-/	4.A-\	.	.	4g-/	-śnio-	.
8D-/ 8DD-/	.	8f/ 8d-/	.	.	.	8f/	-ny	.
!!LO:LB:g=original
=103	=103	=103	=103	=103	=103	=103	=103	=103
*	*	*	*^	*	*	*	*	*
8G-/L 8GG-/	.	8e-/L 8c/	4.A-\	4.ryy	.	.	8e-/	mro-	.
8F/ 8FF/	.	8f/ 8d-/	.	.	.	.	8f/	-źną	.
8E-/J 8EE-/	.	8g-/J 8e-/	.	.	.	.	8g-/	za-	.
4D-/ 4DD-/	.	4a-/	4.A-\	4f/	.	.	4a-/	-wie-	.
8C/ 8CC/	.	8r	.	8e-/	.	.	8a-/	-ją	.
=104	=104	=104	=104	=104	=104	=104	=104	=104	=104
4BB-/ 4BBB-/	.	4.dd-/ 4.b-/ 4.f/ 4.d-/	4.ryy	4.ryy	.	.	8dd-\	Po-	.
.	.	.	.	.	.	.	8dd-\	-tem	.
8D-/ 8DD-/	.	.	.	.	.	.	8dd-\	po-	.
4.F/ 4.FF/	.	4.cc/	4.f\ 4.c\	8b-/L	.	.	4cc\	-że-	.
.	.	.	.	16a-/L	.	.	.	.	.
.	.	.	.	16gn/J	.	.	.	.	.
.	.	.	.	8a-/J	.	.	8cc\	-gnał	.
*	*	*	*v	*v	*	*	*	*	*
=105	=105	=105	=105	=105	=105	=105	=105	=105
4GG-/ 4GGG-/	.	4.b-/ 4.g-X/ 4.d-/ 4.B-/	4.ryy	>	.	8b-\	wszy-	.
!	!	!	!	!	!	!	!	!LO:DY:a
.	.	.	.	.	.	8b-\	-stkich	>
8BB-/ 8BBB-/	.	.	.	.	.	8b-\	ko-	.
4.D-/ 4.DD-/	.	4.a-/ 4.d-/ 4.A-/	8g-/L	]	.	4a-/	-le-	.
.	.	.	16f/L	.	.	.	.	]
.	.	.	16e-/J	.	.	.	.	.
.	.	.	8f/J	.	.	8a-/	-ją	.
*	*	*v	*v	*	*	*	*	*
!!LO:LB:g=original
=106	=106	=106	=106	=106	=106	=106	=106
!	!	!	!	!	!LO:TX:i:a:t=Bardzo wolno	!	!LO:DY:rj
4.AAn/ 4.AAAn/	.	4.an/ 4.en/ 4.c#X/ 4.An/	pp	.	4.an/	I	pp
!	!	!	!	!	!	!	!LO:DY:a
4.DDn/ 4.DDDn/	.	4.a/ 4.f#X/ 4.dn/ 4.A/	>]	.	4a/	od-	>
.	.	.	.	.	8a/	-dał	.
=107	=107	=107	=107	=107	=107	=107	=107
*	*	*^	*	*	*	*	*
*	*	*	*^	*	*	*	*	*
*	*	*	*	*^	*	*	*	*	*
!	!	!LO:TX:i:a:t=rall.	!	!	!	!	!	!	!	!
2.AA-X/ 2.AAA-X;</	.	[4.a-X/	[4.A-X\	8d-X/L	4e-X/	.	.	4.a-X/	du-	]
.	.	.	.	8c/	.	.	.	.	.	.
.	.	.	.	8d-/J	8B-\	.	.	.	.	.
.	.	4.a-;/] 4.e-/	4.c\ 4.A-\]	4.ryy	4.ryy	.	.	4.a-;/	-szę.	.
*	*	*v	*v	*v	*v	*	*	*	*	*
=108	=108	=108	=108	=108	=108	=108	=108
2.r	.	4a-/ 4A-/	ppp	.	2.r	.	.
.	.	8a-/ 8A-/	.	.	.	.	.
.	.	4a-/ 4A-/	.	.	.	.	.
.	.	8a-/ 8A-/	.	.	.	.	.
!!LO:PB:g=original
=109	=109	=109	=109	=109	=109	=109	=109
!	!	!	!	!	!	!	!LO:DY:rj
(<4F-X\ 4D-\	.	(4a-/ 4f-X/ 4A-/	.	.	8a-/	W trzy	ppp
.	.	.	.	.	8a-/	dni	.
8E-/ 8AA-/	.	8a-/ 8e-/ 8A-/	.	.	8a-/	na	.
4D-/ 4FF-X/	.	4a-/ 4d-/ 4A-/	.	.	4a-/	tru-	.
8E-/ 8AA-/)	.	8a-/ 8e-/ 8A-/)	.	.	8a-/	-mnę	.
=110	=110	=110	=110	=110	=110	=110	=110
(<4F-X\ 4D-\	.	(4a-/ 4f-X/ 4A-/	.	.	8a-/	Jan-	.
.	.	.	.	.	8a-/	-ka	.
8E-/ 8AA-/	.	8a-/ 8e-/ 8A-/	.	.	8a-/	garść	.
4D-/ 4FF-X/	.	4a-/ 4d-/ 4A-/	.	.	4a-/	zie-	.
8E-/ 8AA-/)	.	8a-/ 8e-/ 8A-/)	.	.	8a-/	-mi	.
=111	=111	=111	=111	=111	=111	=111	=111
(8F-X\L 8D-\	.	(8a-/L 8f-X/ 8A-/	.	.	(>8a-/	Z rą-	.
8F-\ 8D-\	.	8f-/ 8d-/	.	.	8f-X/	-czki	.
8G-\J 8E-\ 8D-\)	.	8g-/J 8e-/ 8d-/)	.	.	8g-/	Ha-	.
4A-\ 4F-\ 4D-\	.	4a-/ 4f-/ 4d-/	.	.	4a-/	-li-	.
8A-\ 8F-\ 8D-\	.	8a-/ 8f-/ 8d-/	.	.	8a-/)	-ny	.
!!LO:LB:g=original
=112	=112	=112	=112	=112	=112	=112	=112
8G-\L 8E-\ 8D-\	.	8b--/L 8g-/ 8d-/	.	.	(8b--\	się	.
8B--\ 8G-\ 8D-\	.	8dd-/ 8b--/ 8d-/	.	.	8dd-\	po-	.
8G-\J 8E-\ 8D-\	.	8b--/J 8g-/ 8d-/	.	.	8b--\	-sy-	.
4.A-\ 4.F-X\ 4.D-\	.	4.a-/ 4.f-X/ 4.d-/	.	.	4a-/	-pa-	.
.	.	.	.	.	8f-X/)	-ła:	.
=113	=113	=113	=113	=113	=113	=113	=113
*^	*	*^	*	*	*	*	*
8AA-/L	[4.AA-\	.	(8a-/L	8r	.	.	(8a-/	Wie-	.
8C/	.	.	8g-/	4A-\	.	.	8g-/	-czór	.
8D-/J	.	.	8f-X/J	.	.	.	8f-X/	pła-	.
8G-/L	8AA-\]	.	4e-/	4.A-\	.	.	(4e-/	-ka-	.
8AA-/	4AA-\	.	.	.	.	.	.	.	.
8F-X/J	.	.	8d-/)	.	.	.	8d-/))	-ła	.
*v	*v	*	*	*	*	*	*	*	*
*	*	*v	*v	*	*	*	*	*
=114	=114	=114	=114	=114	=114	=114	=114
8G-\L 8E-\ 8GG-\	.	8a-/L 8c/	.	.	8a-/	łza-	.
!	!	!	!	!	!	!	!LO:DY:a
8Gn\ 8En\ 8GG-\	.	8b-/ 8d-/	<	.	8b-\	-mi	<
8G-X\J 8E-X\ 8GG-\	.	8cc/J 8c/	.	.	8cc\	rze-	.
8Fn\L 8D-\	.	4dd-/ 4d-/	.	.	4dd-\	-wne-	.
8A-\ 8F\ 8D-\	.	.	.	.	.	.	[
8c-X\J 8A-\ 8F\ 8D-\	.	8dd-/ 8d-/	[	.	8dd-\	-mi	.
!!LO:LB:g=original
=115	=115	=115	=115	=115	=115	=115	=115
*ped	*	*	*	*	*	*	*
!	!	!	!	!	!	!	!LO:DY:rj
8B-\:L 8D-\: 8GG-:\	.	8ee-/:L 8g-/: 8d-:/	f	.	8ee-\	Ran-	f
8B-\: 8D-\: 8GG-:\	.	8dd-/: 8g-/: 8d-:/	.	.	8dd-\	-kiem	.
!	!	!	!	!	!	!	!LO:DY:a
8G-\J 8D-\ 8GG-\	.	8b-/J 8g-/ 8d-/	>	.	8b-\	się	>
*Xped	*	*	*	*	*	*	*
.	.	.	.	.	.	.	.
*ped	*	*	*	*	*	*	*
8AA-\L	.	16a-/LL 16f/ 16d-/	.	.	(4a-/	śmia-	.
.	.	16aa-/ 16ff'/	.	.	.	.	]
8f\J 8d-\ 8A-\	.	16ff/ 16dd-'/	]	.	.	.	.
.	.	16dd-/ 16a-'/	.	.	.	.	.
8r	.	16a-/ 16f'/	.	.	8f/)	-ła,	.
*Xped	*	*	*	*	*	*	*
.	.	16f/JJ 16d-'/	.	.	.	.	.
=116	=116	=116	=116	=116	=116	=116	=116
!	!	!	!	!	!	!	!LO:DY:rj
4.AA-/ 4.AAA-/	.	8r	p	.	16g-/LL	Ran-	p
!	!	!	!	!	!	!	!LO:DY:a
.	.	.	>	.	16b-/JJ	.	>
.	.	8g-/L 8c/ 8A-/	.	.	8a-/	-kiem	.
!	!	!LO:TX:i:a:t=rit.	!	!	!LO:TX:i:a:t=rit.	!	!
.	.	8g-/J 8c/ 8A-/	]	.	16e-/LL	się	.
.	.	.	.	.	16f/JJ	.	.
4.D-/ 4.DD-/	.	8r	.	.	4e-/	śmia-	]
.	.	8g-/L 8c/ [8A-/	.	.	.	.	.
.	.	8f/J 8d-/ 8A-/]	.	.	8d-/	-ła!	.
!!LO:LB:g=original
=117	=117	=117	=117	=117	=117	=117	=117
2.r	.	(8aa-\L	p	.	2.r	.	.
.	.	16bb-\L	.	.	.	.	.
.	.	32aa-\L	.	.	.	.	.
.	.	32gg-\J	.	.	.	.	.
.	.	16ff\	.	.	.	.	.
.	.	16ee-\JJ)	.	.	.	.	.
.	.	(32dd-\LLL	.	.	.	.	.
.	.	32ee-\	>	.	.	.	.
.	.	32ff\	.	.	.	.	.
.	.	32ee-\JJJ	.	.	.	.	.
.	.	16dd-\LL	.	.	.	.	.
.	.	16b-\	.	.	.	.	.
.	.	16cc\	.	.	.	.	.
.	.	16a-\JJ)	]	.	.	.	.
=118	=118	=118	=118	=118	=118	=118	=118
*	*	*^	*	*	*	*	*
!	!	!LO:TX:i:b:t=rall.	!	!	!	!	!	!
8r	.	[4.dd-/	8r	.	.	2.r;	.	.
!	!	!	!	!LO:DY:rj:b=2	!	!	!	!
8GG-/L 8GGG-/	.	.	8cc\L 8a-\ 8d-\	pp	.	.	.	.
8BB-/J 8BBB-/	.	.	8b-\J 8g-\ 8d-\	.	.	.	.	.
4D-/ 4DD-;</	.	4dd-;/]	4a-\ 4f\ 4d-\	.	.	.	.	.
8r;	.	8r;	8ryy	.	.	.	.	.
*	*	*v	*v	*	*	*	*	*
==	==	==	==	==	==	==	==
*-	*-	*-	*-	*-	*-	*-	*-
!!!system-decoration: s1{(s2,s3)}
!!!ENC: Andrzej Gręziak
!!!END: 2021-09-13
!!!RDF**kern: > = above
!!!RDF**kern: < = below
!!!RDF**dynam: > = dim.
!!!RDF**dynam: < = crescendo
!!!RDF**kern: @ = marked note
!!!EED: Andrzej Borzym
!!!EST: 2021-10-05
